/* XPM */
static char * 공주_열림_xpm[] = {
"64 64 200 2",
"  	c #353637",
". 	c #3A3B3C",
"+ 	c #3C3C3C",
"@ 	c #3B3C3D",
"# 	c #444444",
"$ 	c #434242",
"% 	c #363738",
"& 	c #373839",
"* 	c #383839",
"= 	c #3F3F40",
"- 	c #444343",
"; 	c #403F40",
"> 	c #6A3E1C",
", 	c #8D521C",
"' 	c #B06A1E",
") 	c #653C1D",
"! 	c #A36523",
"~ 	c #E3942A",
"{ 	c #93531A",
"] 	c #C98025",
"^ 	c #EA9B2D",
"/ 	c #6D411E",
"( 	c #9B591B",
"_ 	c #BB721E",
": 	c #AA631D",
"< 	c #C47B23",
"[ 	c #E5962B",
"} 	c #A6611C",
"| 	c #96591D",
"1 	c #B96F1E",
"2 	c #DE922C",
"3 	c #E2962D",
"4 	c #D78B29",
"5 	c #CA7F24",
"6 	c #333435",
"7 	c #7C451A",
"8 	c #8A4E1A",
"9 	c #844A1A",
"0 	c #7E491B",
"a 	c #86511E",
"b 	c #7F4517",
"c 	c #333335",
"d 	c #A25D1B",
"e 	c #99571A",
"f 	c #75421A",
"g 	c #A15A22",
"h 	c #9A5D2A",
"i 	c #CA8039",
"j 	c #CE853D",
"k 	c #AB672B",
"l 	c #A5632A",
"m 	c #CC823B",
"n 	c #DD9246",
"o 	c #DE9447",
"p 	c #9C5C25",
"q 	c #D4883E",
"r 	c #DF9549",
"s 	c #E09549",
"t 	c #DA9045",
"u 	c #313233",
"v 	c #C57D39",
"w 	c #D3863D",
"x 	c #E0984B",
"y 	c #C57B36",
"z 	c #804719",
"A 	c #925522",
"B 	c #BA7534",
"C 	c #D98D43",
"D 	c #D48B42",
"E 	c #B46B2D",
"F 	c #713F1A",
"G 	c #955D2B",
"H 	c #C17E3B",
"I 	c #C5813C",
"J 	c #CD8741",
"K 	c #BE7B39",
"L 	c #9E622C",
"M 	c #B47334",
"N 	c #A4682F",
"O 	c #85562A",
"P 	c #895528",
"Q 	c #834D22",
"R 	c #C97D36",
"S 	c #C87F3A",
"T 	c #C68742",
"U 	c #BC702E",
"V 	c #B96D2D",
"W 	c #CA8842",
"X 	c #AB6A30",
"Y 	c #C37532",
"Z 	c #6A4323",
"` 	c #894F21",
" .	c #AF692C",
"..	c #B46F30",
"+.	c #694528",
"@.	c #52443B",
"#.	c #9C6832",
"$.	c #B57638",
"%.	c #AE6326",
"&.	c #904F1E",
"*.	c #7D4924",
"=.	c #533C2D",
"-.	c #654123",
";.	c #4A4643",
">.	c #434F58",
",.	c #7B532F",
"'.	c #AF7438",
").	c #B26429",
"!.	c #53342B",
"~.	c #4B423D",
"{.	c #533D33",
"].	c #44525B",
"^.	c #434A4E",
"/.	c #5B3B2B",
"(.	c #954E20",
"_.	c #6C311F",
":.	c #4B3E3B",
"<.	c #504136",
"[.	c #474947",
"}.	c #7C311B",
"|.	c #943213",
"1.	c #9A4E21",
"2.	c #983814",
"3.	c #8C2C12",
"4.	c #5D352A",
"5.	c #434444",
"6.	c #66472D",
"7.	c #5B402C",
"8.	c #623123",
"9.	c #A43110",
"0.	c #A3451A",
"a.	c #A35225",
"b.	c #A24B1E",
"c.	c #A33C14",
"d.	c #AC3411",
"e.	c #873118",
"f.	c #574739",
"g.	c #8B4B17",
"h.	c #60352A",
"i.	c #742915",
"j.	c #B03611",
"k.	c #A02F0F",
"l.	c #9B2F10",
"m.	c #4E4036",
"n.	c #774620",
"o.	c #444D53",
"p.	c #5B3B33",
"q.	c #922D11",
"r.	c #842B13",
"s.	c #622F22",
"t.	c #473B33",
"u.	c #864A17",
"v.	c #A2300F",
"w.	c #9D3212",
"x.	c #672B1A",
"y.	c #543226",
"z.	c #493A34",
"A.	c #6B3322",
"B.	c #742713",
"C.	c #9C2E0F",
"D.	c #7D2B14",
"E.	c #67301F",
"F.	c #443D3B",
"G.	c #7B2E19",
"H.	c #7B2712",
"I.	c #42474A",
"J.	c #43413F",
"K.	c #732D1A",
"L.	c #952B0E",
"M.	c #582E23",
"N.	c #843315",
"O.	c #AF501C",
"P.	c #AB4819",
"Q.	c #9D4517",
"R.	c #883514",
"S.	c #693829",
"T.	c #494D4C",
"U.	c #8D3A16",
"V.	c #913B15",
"W.	c #5D3125",
"X.	c #4A4944",
"Y.	c #9C4C1D",
"Z.	c #9C5121",
"`.	c #AD5523",
" +	c #A95F26",
".+	c #94441B",
"++	c #4A5255",
"@+	c #D8893F",
"#+	c #B26326",
"$+	c #953E19",
"%+	c #524D44",
"&+	c #C87632",
"*+	c #4D352E",
"=+	c #72301D",
"-+	c #494F51",
";+	c #465055",
">+	c #575246",
",+	c #613828",
"'+	c #584E42",
")+	c #534F48",
"        . + @ + # # # # + + . . $ $ %   & %   % $ $ $ + % * $ $ . @ + + + @ $ $ . * . . & * * * . . + + $ $ $ = * * . . & % %   ",
"        . . . + # # # # + . @ @ - # % % % & % % $ $ ; + % * $ $ > . . + + @ $ $ * . * * % . * * . + + + $ $ $ $ * * . . % % %   ",
"%   . + $ $ + + + + + + + @ + + + + % % . + $ ; + + + . . + + , ' , + . . . + + . . ; =   % + + $ + + + + + @ @ . @ + + + + %   ",
"  % . + # - + + + + + + + + + + . .   % . + $ $ @ . @ ) + + ) ! ~ ! ) @ . > ) @ . . - $ %   + $ $ $ + + @ + + @ . . . . + + %   ",
"%   . @ + + + + + + + + + + $ $ @ .     @ . + + . . ) , , > { ] ^ ] , / { { ) . . + + @ % % @ @ + + + + * . . + + . * * + @ % % ",
"%   . . . + . . + @ + + + + $ $ + .     @ + + . . + ) ( _ : < ~ ^ [ < : _ } ) . @ . @ . % % . @ + + + + . . . . + + * * + . % % ",
"% % @ . % % . + . + + + + + + + . *     & * . + + @ ) | 1 ] 2 3 3 3 2 4 5 | ) @ . . * * 6   @ @ . @ + + + @ + + & % * . % % %   ",
"% % . . * % . + . @ @ + @ + + @ . *     & * . . @ 7 8 9 0 9 , , , , a 9 0 b b > ) . % & c c @ + + @ + + + . . . % % . + & & %   ",
"%   . . . . + + + + * * + + + + * % 6 c % & . ) 7 { d e 8 { e { , , 8 7 b e d { f ) % % c c & % . + @ @ * %   % + + . . . * %   ",
"% % + . + + + + + . * * + + + . % % 6 6 % % ) f { } d ( ( : d d : : ( { 8 ( : : , ) % % c c % % . . @ . % %   % + + @ + + .     ",
"% % * * * * * * . . @ . + + * %   %     % % ) 8 d d e ( } d d : : d 8 { g { ( : ( 0 )   c c 6 c % * * % 6 6 * . + . * * * *   6 ",
"% % * * * * % % * . + . + + &           % % f e } ( { d d d : : : { h i j k 8 d d 8 ) c c c c c % & &   c c * + . . & % * &     ",
"    %       c   6 6     c c 6 6           ) 9 d d 8 { d d } : : | l m n o m p 8 d , > 6     c c 6   6 c c c   c   c             ",
"            c c 6 c c c c c       6       ) 8 d { 9 ( } : : d { l q r s r t i p 9 e 9 )             c c u c   c c c             ",
"% % * * % % * * * % c   * * * . $ $ $ $ . ) 8 ( 9 8 d ( e 8 b p v i w x j y w l f { 8 ) $ $ $ $ + @ . * % % % * + $ + + * * %   ",
"% % . . % * * * . *     * * . @ $ $ $ $ . ) 8 8 z 8 e 9 f 9 , A p B C s D E p A f , 9 ) $ $ $ $ + + . . * & * * $ $ $ $ . *     ",
"% % . @ $ $ . . + .     * @ + + . + + + + > 8 9 f f f F G H I H H D r s r J K L f 9 f + + + + + + + + + + + + + + + + + . @ %   ",
"% % * + $ $ + . + + % % . + + + . . . + + / 8 9 A ! 9 f M j N O L j r s I G P Q > f + + + + + + @ + + + + + + + + @ + + @ .   % ",
"% % * * . . + . & * * * & * @ @ . + @ . + 7 { 9 p R L A S C T O G t r r D L P L > ) * * + + + + * * + + @ + @ . * * . + * % % % ",
"% % % * + + + + % % . . % & . . + + + . / 8 d , 9 M U V q o x W J s r t C D H X > > % % + + + + * * @ + @ + + @ * * + + & % %   ",
"%   & * * * % % % & . . . . . . * * . + 0 ( d , b 9 p Y D n r s s s r j v n w p f 0 Z + * * + + . + $ $ @ + + + @ + + . % &   % ",
"    % * * * %   * * + + . . + + * * . ) 8 } ( 8 , 8 b ` B n r r r r n D w n B 9 9 8 / + % & @ . + + $ $ + + . + + . + . * %   % ",
"  c % &     . . + . * * % & + + . . * ) , : e e d e b > Q K n n s m  ...w i A f { e 9 % % * * * + + + + + + * * @ @ * * & % 6   ",
"c c % % c   * + + . % % % % . @ + . % ) 8 ( { d : ( 9 7 > Q H n n q y v y p F b 8 d { ) % & % % * . @ + + + * * . * % % % % c c ",
"c c u c     % * * % & % * % & * & & * & f 8 { d : { 9 9 f `  . .v C C R p F f z 8 d , ) % % % % & & & & % & % & & & % % 6 6 c c ",
"c c c 6 % % % % % * * & * & & & % & & & > 0 ( d ( 8 b f 9 l y k g l p ` f > z 9 8 ( 9 > % % & % % % % & % % % & & * & %     c c ",
"c c c u c 6 c c 6       c c c c 6   c c > 9 d ( 8 +.@.+.#.$.R m V %.&.9 *.=.Z 9 { 8 > % 6 c             c c c c     c c     c c ",
"c c c u c 6 c c c c c 6 c c c c c c u c 7 e d 8 -.;.>.;.,.'.B R q R ).l G !.~.+.e 8 >   c c           c c c c c   c c c 6   c c ",
"c c + $ $ $ . * . . . * * * * . % % c / 8 d e f {.>.].^./.(.$.K U U B $.(._.:.<.9 { f + 6   * % * * * * + + . * * * . . * *   c ",
"c c $ - $ $ + . + . . @ * * + @ % % c > , d 8 -.[.].].;.}.|.1.M v S B g 2.3.4.5.6.{ 9 Z   c * % * * * . $ $ + + . . . + . .   6 ",
"    + + + + + + + + + $ + + . . . * c > 8 e 9 7.^.].;.8.3.9.9.0.a.a.b.c.d.9.e.{.f.g.8 >     + + . + + + + + + + . . $ $ + .   c ",
"    . @ . + @ + + + $ $ + + + + + . c 6 f 8 z {.^.^.h.i.3.d.j.9.k.l.9.j.j.j.|.4.m./ n.* 6 c + + + + + + + + . . + + $ $ + .   c ",
"% % * * + . + + & * + + + + + + * * 6 c > 8 b @.o.p.q.r.3.d.j.j.j.j.j.j.j.j.|.s.t.=.* & c c & * + + . @ @ + * & + + + + * * c c ",
"% % % * + + . * & % . + + + + . * * c c b u.-.[.~.}.v.3.r.9.9.9.9.9.9.9.9.w.r.x.y.z.& % c c   % @ + @ + . . * & . + . . * * c c ",
"% & @ . + + % % . . + + + + * & % & c -./ F {.5.A.l.9.3.B.3.C.C.C.C.C.C.l.3.D.r.E.z.% % c c     + + + * & * * + . @ . @ . . 6 c ",
"% % . * . * % % . + + + + @ * & % % c u * /.~.F.G.v.9.q.B.r.C.C.C.C.C.C.q.H.3.q._.t.% & 6   % % + + . . & * . + @ . . + + . 6 c ",
"  % * *     + @ % & + + * * & & & % u c % ~.I.F.}.9.d.9.D.r.C.C.k.k.k.k.q.D.l.w.A.~.& & u c + @ & & . . . @ % % . . * * * & c c ",
"% % & %     + . % & . . & * & * % % c c % J.^.5.K.l.d.d.q.H.r.L.C.C.L.L.r.r.9.w.A.;.@.% u u . . % % . . . *   % . . * % & & c c ",
"  c c c % % % * * & & * * * % & c c u c c ;.o.5.M.r.9.d.9.3.N.0.O.O.P.Q.R.3.j.w.S.T.~.  c c   % & % * % & % % & * & * & & % c c ",
"c c u c & % % & & & & % % % % % c u u c c T.o.I.F.s.3.9.9.9.|.U.0.P.c.V.N.9.d.|.p.T.;.c c c     * % % % % % % & % % & & & % c u ",
"6 c c c     c c c c c 6         6 c c c u T.>.^.5.!.i.q.9.9.9.q.L.k.C.r.r.d.9.G.:.o.;.u c           c 6 c c c u c c         6 c ",
"6 6 6   c c u u c c c c         c c u c ;.T.>.^.5.W.D.r.3.9.d.9.q.q.q.r.|.d.|.8.[.T.X.c c           6 c c c u u c c     c   6   ",
"    % % * . $ $ . * * * . . . * * * + $ ;.o.>.I.z.K.q.3.D.3.9.w.b.Y.U.Z.`.|.r.8.[.o.T.+     . . . . . * * * % % + + . * * %     ",
"    * * @ + # # + + . * . + + + + . $ $ ;.o.o.5.!.r.v.9.q.r.r.b.Y R  +).Y .+D.K.:.o.++$ & % + + + + + + @ * * * $ $ + + * * c c ",
"%   . + + + + + + + + @ % & + + @ + + + X.o.o.J.W.3.9.9.9.q.r.a.w @+m V #+Y.3.r.4.^.++& . + + + % * . + $ + @ . + + . @ @ .     ",
"    + + + . . @ + + + + % % * . @ @ @ . T.o.^.F.x.3.9.9.9.9.w.$+E w w V Y.U.l.3.8.^.++X.+ + + + * & . @ $ $ @ . . + . . . * 6 6 ",
"    % * + @ + + + + @ + + . & * @ @ + %+T.>.I.z.K.L.9.d.9.9.d.q.$+).&+).U.q.w.q.A.I.o.;.+ + + + @ + . . . . @ + * * . . * %   c ",
"%   % * + + + + + + + + + . % & . + + ;.o.>.I.*+D.C.9.d.9.9.j.w.q.2..+$+w.9.9.q.=+[.o.X.+ + + + + + . . + . . . * * @ . & % c c ",
"    * . + . * * @ @ + + . . . . % % @ X.o.o.5.!.r.C.9.j.9.9.j.9.k.9.q.w.j.d.9.C.}.~.o.[.+ . + + . . . . . @ + . . . . @ & % c c ",
"    * * + . * * . + + + * * + @     * ;.o.o.5.!.D.C.9.j.9.9.j.9.9.d.9.9.j.d.v.C.r.{.o.T.* + @ + + . @ . . + + @ + . . * & &   6 ",
"    * * * * . . . + * * . . + + . * % [.o.^.F.8.3.C.9.j.9.9.d.9.9.j.9.9.j.d.9.C.3./.o.T.* * . . + . * % % & . + . * * & % % c c ",
"    % % % * * + . . % & . . + + + .   [.>.^.z.K.L.C.9.j.9.9.d.9.9.j.9.9.j.j.9.C.3.4.o.++* * . . . * & % % % . . . . & % % % c u ",
"        * * * % * & % % & * * * & % % T.].^.*+i.L.C.9.d.9.9.d.9.v.d.9.9.j.j.9.C.q.A.^.-+%+% % % & % % % %   & * % & & % 6   c c ",
"  c c c & * & % % % % % % % * % % % %+o.].I.*+D.L.C.9.d.9.9.d.9.9.d.9.9.j.j.9.C.q.A.^.o.X.% % % % & % % % % % % %   % %     c c ",
"c c   c     c c c c c c c c c c 6   ;.o.>.5.y.D.L.C.d.d.9.9.d.9.9.d.9.9.j.j.9.C.C.=+[.;+X.c c c   6 u c c c     c c   c c c c c ",
"  c c c   6 c c c c c c c u c c c   X.o.>.5.W.r.L.C.d.j.9.9.d.9.d.j.9.9.d.j.9.C.C.D.:.o.X.c c c c c u c c c 6   c c     6 c c c ",
"  c   % * * . . . . $ $ + + @ *   >+T.>.o.5.8.r.L.C.d.d.9.9.d.9.9.j.9.9.d.j.9.C.k.r.{.o.X.c % % * . + + $ $ $ $ . . . . . * c c ",
"c c % & * . + + + + $ $ $ $ + . 6 X.o.].^.J.A.L.L.C.d.d.9.9.d.9.9.d.9.v.d.j.9.C.k.3./.o.[.c & * . . @ + $ - # # + . @ @ . . 6 c ",
"c c . . . + * * + + + + + + . . c X.;+].^.F.K.L.L.k.d.d.v.9.d.v.9.d.v.k.d.j.9.C.k.3.4.o.[.  * . @ @ + . + + . * * . + + * % c c ",
"c c * + + . * * @ + + . . . . . c X.o.].^.z.G.L.L.k.d.d.v.v.9.9.9.d.v.k.d.j.9.C.C.3.,+o.T.6 . . @ . + * + . * * . . + @ * % c 6 ",
"c c % & & * . . + + & & . . % %   T.].>.I.z.G.L.L.C.9.9.C.v.9.v.d.d.v.C.d.j.9.C.k.q.,+o.-+  * % % * & % . . + + . + + @ * & c 6 ",
"c   %   % % * . + . & % * * % % X.o.].o.5.z.D.L.L.C.9.9.C.v.9.k.v.d.v.C.d.d.9.L.k.3.8.I.o.X.% % % % % & * @ + + + + . . * *   c ",
"6 6   c     % % % * % % % %     X.T.T.[.;.!.r.L.L.C.9.9.C.v.9.v.v.d.9.k.9.d.9.L.C.q.8.~.X.'+    % % % & & * * * * * & %     c c ",
"6 c c c           % % % % %     c )+%+;.@.,+G.r.D.r.3.3.3.3.q.3.3.q.3.3.3.q.3.r.r.G.A.c u c c c     % % % & & % % % & % 6 6 c c "};
