/* XPM */
static char * xpm_out[] = {
"64 64 176 2",
"   c #1E1C1F",
".  c #231E1F",
"X  c #24201F",
"o  c #2D241F",
"O  c #31261F",
"+  c #382A1F",
"@  c #221F20",
"#  c #252121",
"$  c #2C2523",
"%  c #2E2825",
"&  c #322421",
"*  c #322B26",
"=  c #3B2F21",
"-  c #342E29",
";  c #3A2F29",
":  c #37302A",
",  c #3F3730",
"<  c #3F3830",
"1  c #3F3B39",
"2  c #403730",
"4  c #483E36",
"5  c #423E3D",
"6  c #493F38",
"7  c #7A2E24",
"8  c #7C3026",
"9  c #7E3228",
"0  c #4D443C",
"q  c #50473F",
"w  c #51483F",
"e  c #504740",
"t  c #584F46",
"y  c #544F4E",
"u  c #584E4E",
"i  c #5A5047",
"p  c #5D544B",
"a  c #565050",
"s  c #5D5350",
"d  c #5F5A56",
"f  c #61554F",
"g  c #60564B",
"h  c #62584C",
"j  c #645A4D",
"k  c #645A4E",
"l  c #655B4F",
"z  c #655C4F",
"x  c #665C4F",
"c  c #635A4E",
"v  c #625551",
"b  c #665C50",
"n  c #675D50",
"m  c #675D51",
"M  c #655C50",
"N  c #645B54",
"B  c #685E51",
"V  c #685E52",
"C  c #695F53",
"Z  c #695F52",
"A  c #6A5F53",
"S  c #685D51",
"D  c #695E52",
"F  c #665C58",
"G  c #6A6053",
"H  c #6B6154",
"J  c #6C6154",
"K  c #6C6255",
"L  c #6C6255",
"P  c #6D6356",
"I  c #6E6356",
"U  c #6E6456",
"Y  c #6F6557",
"T  c #6C6255",
"R  c #6C6259",
"E  c #802520",
"W  c #832E24",
"Q  c #882F24",
"!  c #952B22",
"~  c #992C24",
"^  c #833026",
"/  c #893025",
"(  c #853228",
")  c #8C362D",
"_  c #953027",
"`  c #993025",
"'  c #973429",
"]  c #9D352A",
"[  c #9B3B2E",
"{  c #943B2F",
"}  c #9A3C30",
"|  c #A13A2C",
" . c #96541A",
".. c #9C571B",
"X. c #9C591D",
"o. c #A35B1D",
"O. c #AA5C1B",
"+. c #AB6416",
"@. c #B46715",
"#. c #BB6716",
"$. c #B56816",
"%. c #BE6D16",
"&. c #BC6B15",
"*. c #B4661B",
"=. c #B66B1B",
"-. c #BA6C1A",
";. c #BF701C",
":. c #A45E22",
">. c #A64536",
",. c #AD4536",
"<. c #AE4835",
"1. c #B34534",
"2. c #B64930",
"3. c #A66022",
"4. c #AE6425",
"5. c #B06626",
"6. c #BC7124",
"7. c #C16F16",
"8. c #C16C18",
"9. c #C07117",
"0. c #C1711C",
"q. c #C37524",
"w. c #B46E47",
"e. c #B56F49",
"r. c #B6714B",
"t. c #B8714C",
"y. c #BC7D54",
"u. c #BD8326",
"i. c #C28425",
"p. c #CD8F27",
"a. c #CE8A25",
"s. c #C78C28",
"d. c #D39127",
"f. c #D29128",
"g. c #E1A628",
"h. c #E2A82A",
"j. c #D09567",
"k. c #D09668",
"l. c #D59A6A",
"z. c #DA9C6C",
"x. c #CF9C73",
"c. c #D49E75",
"v. c #DA9F76",
"b. c #DBA06F",
"n. c #CDAF79",
"m. c #D3A076",
"M. c #DCA374",
"N. c #D0AC76",
"B. c #DDA67A",
"V. c #DEA87D",
"C. c #CEB37C",
"Z. c #D4B47B",
"A. c #D6BA7F",
"S. c #D9BB7F",
"D. c #E3A672",
"F. c #E3A779",
"G. c #E5AA7B",
"H. c #E9AE7E",
"J. c #D8BE81",
"K. c #E7AD80",
"L. c #E8AF80",
"P. c #EBB081",
"I. c #E5C787",
"U. c #E6C988",
"#h c #313233",
"#i c #333335",
"#j c #333435",
"#k c #353637",
"#l c #363738",
"#m c #373839",
"#n c #383839",
"#o c #3A3B3C",
"#p c #3B3C3D",
"#q c #3C3C3C",
"#r c #3F3F40",
"#s c #403F40",
"#t c #434242",
"#u c #444343",
"#v c #444444",
"#k#k#k#k#oq #p#qx x x x x x x x x x m g 2 2 #k#l#t#t#t#q#l#n#t#t#o#p< , #q#p#t#t#o#n#o#o#m#n#n#n#o#oh m x x #tw #n#n4 #o#m#l#l#k",
"#k#k#k#k#oq #o#qx x x x x x x x x x m g , 2 #l#l#t#t#s#q#l#n#t#t#q#o< , #q#p#t#t4 #o4 #n#l#o#n#n: #qh m x x #t#t#n#n0 #o#l#l#l#k",
"#l#k#o#q#tq #q#qx x x m x x x x x x m g 2 2 #t#s#q#q#q#o#o#q#q#q#t#t2 , #o#o#q#q#o#o#s#r4 #l#q#q: #qh V x x l l l l #q#q4 #q#l#k",
"#k#l#o#q#vq #q#qx x x x x x x x x x m g , 2 w #t#p#o#p#o#q#q#q#o#tq #q#p0 #p#q#p#o#o#u#t0 #k4 #t: #th m x x x x x x t #o4 #q#l#k",
"#l#k#o#p#qq #q#qm m m m m m m m m m V g - - - - - - $ $ $ $ $ $ $ $ $ $ $ % #q#o#o#q#q#p#l#l#p#p#q: h V x m m m m m t #n0 #p#l#l",
"#l#k#o#o#o0 #o#ol l l l l l l l l l l p - - - - - - % % % % % % % % % $ $ % 0 #o#p#o#p#o#l#l#o#p#q: g l l l l l l l #n#n4 #o#l#l",
"2 < 2 2 2 < #o, 2 2 2 2 2 2 2 2 2 2 2 2 #m#n0 0 0 0 m V V V V V V m #q#q#p0 % $ % % #n#n#j#k#p#p: : #q#q#q#p#q#q#m#l#n#o: : : : ",
"#l#l< < 2 < 2 2 , , , , , #q#q#p#o#n#k#k2 2 w #o0 w H P P P P P P H t t t #o% $ % % #l#m: : : : : : : : : : : - : : : : : : : : ",
"2 2 #o#o#o#o#q#q#q#q#nq #q#q, 2 #n#l#j0 V V H m #m4 H U P P P P P P H V t #o#n#nl m #l#l#i: #m#l#o#q#p#p#n#l#k: #q#q#o#o#o#n2 #k",
", 2 #q#o#q#q#q#q#q#o#n#n4 #q, 2 #l#l4 0 P P P G #l#mV G V G V V V V G V t #p0 0 H P i t , : #l#l#o#o#p#o#l#l#k: #q4 #p#q#q#o2 , ",
"2 2 #n#n#n#n#n#n#o#o#p#o4 #q2 #l: #lV G P P U G #m2 #n#n#l#n#o#n#n#n#n#n: #nm P P P H G t #i#j: #l#n#n#l#j#j#n: 0 #o4 #n2 2 #k#j",
"2 2 #n#n#n#n#l#l#n#o#qq 4 #q, #k#k2 P P P P G m #l2 : - - - - - - - * - - #nm H P P U P i #i#i: #l#m#m#k#i#i#n: 0 #o0 #l2 , #k#k",
"2 2 #l#k#k#k4 4 4 4 4 4 4 #i: 2 V G P P U V #i: $ $ 1 1 $ # # # # # # $ 1 5 $ % V U P P i #k#i: #j#k#j#i#i#i#k: 0 #i#k#k4 #k2 #k",
"2 2 #k#k#k0 #i#i#j#i#i#i#i#i- 2 P P P P G l : * # # 5 5 # # # $ $ # # # 5 5 # # h G V V t #k#k: 2 #k#i#i#h#i#k: 0 #i#k#k4 #k2 #k",
": : #n#n#l: : : : : : : : : - #oi i U m #o: # # X $ y y #   $ u.u.$   # y y $ # $ % 2 #o2 2 w #t- % : : : : : : : : : : : : : : ",
"#l#l: : : : : : : : : : : : #o< i i G h - * # # X $ a a & o = p.p.= o & a a $ X . # #o, 2 2 #tt - % : #o#n#m#n#n: : : : : : : : ",
"#l#l#oq #t#t: #o#qq #k#k: #pm V P l #q: # # # # . $ a p X.i.s.h.h.s.i.X.p a $ # # # # $ #qp p p - % 0 #q#q#q#q#q#q#q4 #q, #p#l#k",
"#l#l#nw 4 #t: #o#q#q0 #l- , P P U m - * # # # # X $ a f o.a.f.g.g.d.a.o.f a $ X # # # # i g p p - % q #q#q#q#q#q#q#p0 #q2 #o#k#l",
"#l#l4 #n2 , : #o#m#n#n0 - , H P P m : * # # # # . # a f =.%.%.9.9.%.O.X.f a # @ # # # # l P p p - % q #q#p#q#p#o#n#n0 #q2 #l#l#l",
"#l#l4 #n2 2 : #q#l#l#o0 - #mH P P x : * # # # # o & a f =.0.;.%.%.$.O.X.v a & o # # # # l U g p - % 0 #q#p#q#q#p#n#n0 #q2 #l#l#k",
"#l#k#mq 4 #n: #l#l#m#o0 $ - P P U m : * # # # o  .X.s p -.D.D.;.&.%.%.=.f s X...$ # X # l U g p - % q #t#p#q#q#q0 #q#q#o2 #m#k#l",
"#k#k#lq 4 #n#l#k#n#n#q0 $ - G G P l : * # # @ o o.o.s p 6.G.G.q.;.;.0.6.v s o.o.$ # X # h G p i - % 0 #t#q#q#o#q#q#o#q#o2 #l#k#l",
"#k#i#l#m#k#k#o#o#q#o#n#n$ % #q#q#o#o- * # # # $ ..:.p N M.P.H.G.G.G.H.M.N p :.o.$ @ # # 2 #n#n#n* % : #q#q#q#n#n: : : : : : : : ",
"#i#i#l#l#i#k#n#q#q#o#l#l$ % #o#p#q2 - * # # # $ ..:.p N V.B.B.K.K.B.B.B.N p :.o.$ # # # 2 #m2 2 * % : : : : : : : : : : #l: : : ",
"#i2 #h#i#kw 0 0 0 0 #m2 $ - G m t #m: * # # @ $ ..:.p F c.: - B.B.- ; c.F p *.@.O @ # # p l #l#l- % 2 #m#l#m#l: 0 #mw #l#j#j#i#i",
"#i2 #i#j#l#l0 0 0 0 4 2 $ - P H i #m: * # # @ $ ..o.p F c.: - B.B.- : c.F p =.$.O @ X # p m t t - % #l#m#l#l#l: 0 #n#m#l#k#k4 #i",
"#i2 #i#h#i#j0 0 4 #k4 #k$ - H P P l : * # # @ o @.=.p N B.B.B.K.H.B.B.B.N p =.@.o @ # # p x h h - % 0 #k4 #i#i: 0 #k#i#i0 #k2 #i",
"#i2 #i#h#i#j0 0 #i#i4 #j$ - P P U m : * # # @ O $.=.p N B.P.L.G.G.H.P.B.N p =.$.+ # # # p x h h - % 0 #i4 #i#i: 0 #i#i#i#j#k2 #i",
"#i2 #q#t#t#t#o#n#o#o4 #n$ - P P U x : * # # @ $ $.=.p N V.P.G.r.w.G.P.V.N p =.%.o. .o # p x h h - % q #n4 #q#o: q #n0 #o#n#n2 #i",
"#i2 #t#u#t#t#qq #q#o#o2 $ - H P P x : * # # $ + $.=.p N M.G.F.w.w.F.G.M.N p =.%.O.o.o # p x h h - % 0 #o#t#t#q: 0 #o#o#q#o#o2 #j",
"#k#k, , , #q, #q#q#q#q#t$ - P P U m : * # O +.$.%.=.s s :.4.l.z.z.z.5.3.s s =.%.O...o # p m l h - $ : #q: : : : : #o: : : : : : ",
", , #o#p#o#q#p#q, #q, #t$ - V V H h : * @ O $.7.%.*.s s :.4.l.z.z.l.5.3.s s *.$.O...o # i h h g - $ : #q: #q: : : : : : : : : : ",
"#lq #n#n#q#o#q2 #m#n#q0 % * #q#q#n#n- - @ O $.%.2.<.s N j.z.z.z.z.z.z.k.N s [ | O...o # 2 #i#m#n* % 0 #pq q q q #q#q#q#q#n: 2 #i",
"#l#l4 #n4 #q#o2 #m#l#o0 % * #q#o#n2 - - # O $.%.1.,.s N l.b.b.b.b.b.M.l.N s } | o...o # 2 #i2 2 * % q #q#o#o#n#m4 #q#o#o#n: #i#i",
"#l#m4 #o4 #q#l2 #o#o#q0 $ - V m #l#m: - # O $.8.1.,.s N C.S.I.U.U.I.S.C.N s } | O...o # h G t #k- % q #n#m#n#n#q6 #p#o#p#o: #j#i",
"#lw #o#n4 #n#l2 #o#q#q0 $ - P V t #l: - # O +.*.1.,.s N C.J.U.U.U.U.J.C.N s } ] .. .o # l U t #l- % 0 #o#m#n#o#q4 #o#o#q#q: #j#i",
"#k4 #n#n4 #k#q2 #l#m#q0 $ - H H P l : * # # o + ! _ u d C.J.A.A.A.A.J.C.N u W E & $ # # l P t #p- % #o4 #o#p#l#l#o#o2 2 : : #i#i",
"#l#l#m#l#k#k#q2 #l#m#o0 $ - H P U x : * # # @ # ' [ N R n.A.A.A.A.A.A.n.R N ) ( # @ # # l P i t - % 2 #o#o#n#k#l#o#o2 , : : 2 #i",
", #i#i#i#l#l#l#n, , < #n$ - H P P l - * # # . * c.G.V.B.y.y.A.J.J.A.y.y.B.V.G.c.* . # # l P G V - $ : : : : : : : : : : : : : : ",
"#i#i, , < < , < , , , #l$ - H P P l - * # # . * B.P.L.G.t.r.N.Z.Z.N.r.t.G.L.P.B.- . # # l P H H : $ : #l: : : : : #l#m#m: : : : ",
"#j2 #i#i#k#k#i#i#iq #i2 $ : P P U x : * # # . * B.P.P.F.| ~ ] ] ] ] ` | F.P.P.B.- . # # l U P H - % 0 #j#i#i#i- 0 #i#k#k#k#k#j#i",
"#j2 #j#k#i#i#h#h#iq 4 2 % - V V G h : * # # . * x.B.V.v.] ~ ~ ~ ~ ~ ~ ] v.V.B.c.* . # # h G V V - % q #i#i#i#h- 0 #i#k#k4 #k#j#k",
"#k2 #l#l#nq #t#t#o#n#n2 % * #o#n#n#n- * # # # # % - s N [ | | 1.1.| | [ N s - * # # # # 2 #k#o#o* % 0 #n6 #n#l: 0 #q0 #n#n#l#k#k",
"#k2 #n#n#pw #v#v#q#q4 2 % * #q#q#q2 - * # # # # . # y s [ | | 1.1.| | [ p y # . # # # # 2 #l#q#q* % 0 #q#p#n#n: 0 #t4 #q#n#n#i#i",
"#l2 #o#q#q#q#q#q#q#q#q0 % - #q#qt #q- * # # # # 7 9 a s [ | 1.1.1.1.| [ v s 9 7 # # # # p l t #q- % #o4 #t#q#p: #q4 #o#p2 2 2 2 ",
"#k< #q#q#q#o#o#p#q#q#q0 % - t t t #p- * # # # $ W ( s s [ | 1.1.1.1.| [ s s ( W $ # # # p V i t - % 2 #p#t#t#p: 2 #q#o#o2 #n#j, ",
"#k#k#l, , #p, , #q#q#p#q$ - g p t #p- * # # # # W ( s v ,.1.1.1.1.1.| [ s a ( W # # # # p m l l - $ : : : : : : : : : : : : : : ",
", , , , #q#q#q#q, #q#q#q$ - h g t #q- * # # # & W ( s v ,.1.1.1.1.1.| [ s a ( W & # # # p V x x - $ : : : : #o: : : : : : : : : ",
"#k#k#nq #q#o#n2 #p#p#q0 $ - h h h i : * # $ 7 W Q ( a s ,.1.1.1.1.1.| [ s s ( Q W 7 # # p V x l - $ 0 #ow #p#q#o#o#o4 #p#m: 2 #i",
"#k#k#n#n#q#o#n2 #o#q#q0 $ - h h h p : * # $ W / Q ( a s ,.1.1.1.1.1.| [ s a ( Q / ^ $ # p V l l - $ 0 #o#o#q#q#p#q#o4 #n#m: #k#j",
"#k#k#n#n4 #n#o2 #ow 4 #n$ - h h h p : * # $ W / Q ( s v ,.1.1.1.1.1.| [ s s ( Q / W # # g V x x - $ 0 #l#l#m6 #q#o#n2 , : : 2 #i",
"#k#k#lq 4 #n#n2 #o#o4 #m$ - p p g i : - # $ 8 ^ ^ 9 u p >.,.,.,.,.,.[ { p p ( ^ ^ 8 $ $ p l h h - $ 0 #lq #l4 #o#o#o2 #l: : 2 #h",
"4 4 4 4 4 #n#n2 #n#m#l#l% * #n#n#m#l2 2 2 2 #n#n#n#n#n#l#i#i#i#h#k#k#l#l#n2 #m#n#n#l, #k2 #l2 2 * % #l4 #l#k#m#n2 2 2 , : : #i#i",
"#k#i#i#i#m#n#m2 #l0 #l2 % * #n#l#l#l#l#l#i#i#n#n#n#m#l#l#i#i2 2 2 2 #l2 2 2 2 2 2 2 2 2 2 2 2 < * % 2 #l#l#l#l#l2 , , #l: : 2 #i",
"#i#i#k#i#k#k#i#i#i#i#i#i$ - #i#i#j#k#k#jp p p p #i#i#i#h#h#h4 #i#h4 i p p i #k#k#i#i#i#h6 #i#i#i* % : : : : : : : : : : : : : : ",
"#k#i#i#i#k#j, #i#i#i#i#i% - t t t t t t f f f g t t #h#h#h#h4 #i#h#hp g p p t #k#i#h#h#h0 #i#i#i* % : : : : : : #i#i#k#k: : : : ",
"#k2 #k#l#n#n#o#o#o#o#t0 #q2 h h h h h h h h h h h g t #o#o#q4 #t2 2 p f p p p p p p 0 #k#k#i#l#l* % #q#q#t#t#t: 0 #o#o#o#o#n#i#i",
"#i2 #l#m#n#o#q#q#q#q#t0 #t2 p p p p p p p p p p p p #q#q#qq #u#u2 2 i p p p p p p i #m#l#j#i#m#n* % #p#q#t#u#v: q #o#p#p0 #o#j#i",
"#i2 #o#o#o#q#n#n4 #q4 #q#q#q- - * * * * * * * - - - * * * * * * * * - - - - - - - * * * * * * * 2 #p#q#o#q#q#o: 0 #o#q#q#n#l4 #i",
"#i2 #n#q#q#o#nq #p#q#q#o#o#o* * * * * * * * * * * * * * * * * * * * * * * * * * * * * * * * * * 2 #o#q#n#q#o#n: 0 #o#q#p#n#l0 #j",
"#i2 #l#m4 4 4 #o2 2 2 2 #o#o: #l#k#k#k#l#l#l#o#o#o#o#m#n: : #o#p#q#q#n#n#m#n2 , , #n#n: #k#k#n#l#l#n#m#l#o#o#q: 0 #q#q#p#n#m0 #j",
"#i, #lq #l#l#n#o, , , , #n#n: #l#k#j#k#l#k#l#n#o#q#n#l#m: : #o#o#q#o#n#n#l#m2 , , #l#n#m#k#k#l#l#l#l#l#m#n#p#q: 0 #q#o#ow w #k#i",
"#j#j#k#i#k#k#l#l#l#n#l#l: : : : #i#i#i#j#k#l#l#l#l#m#l#k: : #l#m#n#l#n#m#l#l#m#l: #k: : #i#j#k#k#l#l#l#m#m#n: : #n#n#m#l#k#k#i#i",
"#j#i#i#i#k#k#k#k#k#l#l#l#l#l#k#k#i: #h#i#k#k#k#k#l#l: : #i#i#k#l: : #l#l#l#m#n#k#i: : : : #i#i#i#k#k#l#l: : : : : #l#m#l: : : : "
};
