/* XPM */
static char *xpm_______[] = {
/* columns rows colors chars-per-pixel */
"64 64 158 2 ",
"   c #2A372B",
".  c #2E3B2D",
"X  c #36342D",
"o  c #39362E",
"O  c #313D2E",
"+  c #3C382F",
"@  c #343536",
"#  c #393632",
"$  c #333C33",
"%  c #3C3932",
"&  c #363738",
"*  c #373839",
"=  c #3B3C3C",
"-  c #403433",
";  c #433C36",
":  c #453C39",
">  c #483B39",
",  c #34422F",
"<  c #38452F",
"1  c #364331",
"2  c #394632",
"3  c #394831",
"4  c #394831",
"5  c #3A4931",
"6  c #3B4A31",
"7  c #3B4833",
"8  c #3A4933",
"9  c #3B4A32",
"0  c #3A4A33",
"q  c #3C4B33",
"w  c #3D4C33",
"e  c #3F4E33",
"r  c #3D4B35",
"t  c #3D4B34",
"y  c #3D4936",
"u  c #3F4A37",
"i  c #3E4C35",
"p  c #3E4E34",
"a  c #3F4F34",
"s  c #3C4A33",
"d  c #3D403C",
"f  c #3D403D",
"g  c #3E403D",
"h  c #3E403D",
"j  c #51492F",
"k  c #454035",
"l  c #444036",
"z  c #454037",
"x  c #454037",
"c  c #464137",
"v  c #474236",
"b  c #464336",
"n  c #494436",
"m  c #404F34",
"M  c #404E35",
"N  c #404D36",
"B  c #414D36",
"V  c #484E32",
"C  c #454038",
"Z  c #464138",
"A  c #464139",
"S  c #464239",
"D  c #474238",
"F  c #40413F",
"G  c #41433F",
"H  c #42433E",
"J  c #43463F",
"K  c #42423D",
"L  c #48433A",
"P  c #48433B",
"I  c #484339",
"U  c #4A4439",
"Y  c #4A443A",
"T  c #4B453A",
"R  c #4A453B",
"E  c #4C463B",
"W  c #4C473C",
"Q  c #4D473C",
"!  c #4C463C",
"~  c #4A4439",
"^  c #4D4B3B",
"/  c #425135",
"(  c #435336",
")  c #475737",
"_  c #435236",
"`  c #475539",
"'  c #465538",
"]  c #485739",
"[  c #485838",
"{  c #4A5939",
"}  c #495A39",
"|  c #4B5B39",
" . c #4B593A",
".. c #4A583B",
"X. c #4C5B3B",
"o. c #4C5C3A",
"O. c #4D5D3B",
"+. c #4D5E3B",
"@. c #4F5F3B",
"#. c #4E5F3B",
"$. c #4D5B3C",
"%. c #4E5C3C",
"&. c #4C5B3A",
"*. c #535737",
"=. c #5E5536",
"-. c #535D3B",
";. c #52623D",
":. c #51613D",
">. c #53643E",
",. c #51603C",
"<. c #3C3E40",
"1. c #3D3E40",
"2. c #3D3F40",
"3. c #3E3E40",
"4. c #3E3F40",
"5. c #3F3F40",
"6. c #3E3F41",
"7. c #3F3F41",
"8. c #3D3F40",
"9. c #403F40",
"0. c #3E4041",
"q. c #3E4042",
"w. c #3E4040",
"e. c #404040",
"r. c #404041",
"t. c #414041",
"y. c #414141",
"u. c #424141",
"i. c #424142",
"p. c #424242",
"a. c #434242",
"s. c #434343",
"d. c #414142",
"f. c #444343",
"g. c #444444",
"h. c #454444",
"j. c #454545",
"k. c #454544",
"l. c #424241",
"z. c #4C4B44",
"x. c #726445",
"c. c #7B6B49",
"v. c #873C2C",
"b. c #8B3E2D",
"n. c #963E2B",
"m. c #87422E",
"M. c #8C422D",
"N. c #92422F",
"B. c #9C432D",
"V. c #954D34",
"C. c #A0452F",
"Z. c #AE492F",
"A. c #A24D33",
"S. c #A55135",
"D. c #B15032",
"F. c #857B54",
"G. c #8C8157",
"H. c #8D8259",
/* pixels */
"@ @ @ @ = = = = j.j.j.j.= = = = s.s.& @ & & & & s.s.s.= & = 9.s.= = = = = = s.9.= = = = * = = = = = = = s.s.s.= = = = = & & & & ",
"@ @ @ & = = = = j.j.j.j.= = = = s.s.= & & & & = s.s.9.= * = s.s.= = = = = = s.s.= = = = & = = = = = = = s.s.s.s.= = = = & & & @ ",
"& @ = = s.s.= = = = = = = = = = = = & & = = = = = = = = = = = = s.s.= = = = = = = = 1.= & & = = = = = = = = = = = = = = = = & @ ",
"& & = = s.s.= = = = = = = = = = = = & & = = s.s.= = = = = = = = s.s.= = = = = = = = s.s.= & = 9.s.s.= = = = = = = = = = = = & @ ",
"& @ = = = = = = = = = = = = 1.= = = @ @ = 1.= 1.s.1.= 1.= = = = 1.s.1.= = = = = = = = 1.= & = = = = 1.= = = = = = = = = = = & & ",
"& @ = = = = = = = = = = = = = = = = @ @ = = = = 1.1.1.1.= = = = = = = = = = = = = = = = & & = = = = = = = = 1.= = = 1.1.= = & & ",
"& & = = = = = = = = = = = = = = S ; @ @ = = = = = = = 1.= = 1.= = = = = = = * * 1.q.= = @ @ ; ; = = = = 1.= = = = = = 1.= = & @ ",
"& & = = = = = * = = = = = = = = S z & & = = = = = q.1.1.= = = = = = q.1.= = = = 1.1.= = @ @ ; ; = = = = = = = = = = = = = = & @ ",
"& & = = 1.1.= = = & & = = = P P = = = q.= = = = = = = = = = = = = = s.s.= = = = = = = = = = = = S S = = = = = = = = = = = = & @ ",
"& & = = = = = = = = * = = = W W = = q.1.= = = = = = = = = = = = d d H H d = = = = = = = = = = = S S = = = = = = = = = 1.= = * @ ",
"& & = = = = 1.= & * * = = = E E = & 1.1.= = = = = = = = 2 2 2 7 ` { O.{ M u = * = = = = = = @ @ U E = & 1.= = = = = 1.1.= = & @ ",
"& & = = = = 1.= = & = 1.= = U U * @ = 1.= = = = = * * = 2 < 7 7 [ | @.O./ M = = = = = = = = & & U P = & 1.1.= = = = 1.= * = = = ",
"& @ & = = * = * = * = = @ @ # % z ; @ @ @ @ @ @ 1 1 2 7 7 < 1 7 7 e { O.;.;.O.X.i 2 @ @ @ & P U ; % @ @ = = = = = = = = * = = = ",
"@ @ = = * = = = = * = = @ @ o % ; z & @ @ @ @ @ 1 1 7 1 1 < 2 7 1 7 { O.O.;.>.O.i u * @ @ @ z z % # @ @ = = = = = = = = & * = = ",
"& = = & = = = = = = = = = = X o o + ; ; z ; % % = = 1 . , , < < < < 7 e ) { / q q i u u H = o o o o = = = = = 1.1.1.= = * & * = ",
"& = = = = = = * = = = = = = # o o + ; z z z + o = = $ . , , 7 2 7 7 2 7 { O.M 7 e q i u H H o o o # = = = 1.1.= 1.= = = * & = = ",
"& & = = = = * & @ * = = = q.= = o o o o o o o o = = $ . < 7 { | O.O.7 7 i M 7 q 7 e O.O.#.$.h = = = s.s.= = = = = = = * & * * * ",
"& & = = = @ * @ & = = = 1.q.= = # X X X o o o % = = $ . 2 M -.-.,.O./ / 7 q 7 7 e / -.-.-.-.H = = = 1.1.= = = = = = = = & & * & ",
"& & * = = & = * * * = = = 1.s.= = = = = = = = = $ $ . . * ; v.M.V / O.O.1 O . O ) *.M.m.P d = = = = = 1.= * @ * = * & & @ & & @ ",
"& & & = = = * = * * = = = = = = = = = = = = = * $ . . O * : n.n.j V X.{ , . . O *.=.B.n.> = = = = = = = = * @ & * * * @ @ @ @ @ ",
"@ @ & = = & & & * & * * = = = = 1 1 $ $ $ $ . . . . 1 2 = > C.Z.B.M.; $   . * > M.B.D.A.> * = = * @ & & * * * = @ @ @ @ @ @ @ @ ",
"@ @ & = & @ & @ @ @ * = = = = = 1 , , 1 . . .   . . 1 1 = > N.B.B.b.; * . . = > v.n.S.V.; * = = = @ & & * = = & @ @ @ @ @ @ @ @ ",
"@ @ & = & @ @ @ & @ & = * = y u ` { X.{ , . . . 1 , 2 1 O O # - : ; O . < 2 7 7 > > > ; 1 1 = = = = = * * * & * @ @ @ @ @ @ @ @ ",
"@ @ & & = @ @ @ * * * = & * 2 7 ] O.O.{ 1 O . . 2 2 7 7 , O @ @ * * O O 2 2 q q = = * * O O * * = = = = = * & @ & & @ @ @ @ @ @ ",
"@ @ @ @ = & * * = = = = = = { { -.O./ i i i O O 7 7 7 7 7 7 7 q q q < , $ $ M e , 1 M M , O * = M u * * * @ @ @ @ @ @ @ @ @ @ @ ",
"@ @ @ * * = * * = = = = = h $.#.O.O./ q e i O O 7 7 7 < 7 q 7 7 2 q M M @ @ u e q q / q , O * = i u * & @ @ @ @ @ @ @ @ @ @ @ @ ",
"@ @ & * = = = = = = @ * u u 7 7 q e 7 e e i * @ O O 7 7 e q $ @ @ = F.F.; @ @ K G.F.K * , , @ * 7 q * @ @ @ @ @ @ @ @ @ @ @ @ @ ",
"@ @ @ * = = = = = = @ * u i 2 < 1 7 7 7 e u * @ . O 2 7 q u h = @ = F.F.; @ @ K G.F.; @ $ 1 * * 2 q * @ * @ @ @ & @ @ & & @ & @ ",
"@ @ * @ * = = = = = 2 8 { { q 7 7 7 , , , O O $ = = u u H z.F.G.K = H K = = = = K K s.= @ @ $ O 1 8 = = = = = = = = * = * * * & ",
"@ @ @ & = = = = = d 2 7 { { q 7 7 7 O O O O . O = = i u s.z.G.H.K = = = = = = = K K f.s.@ @ O O 7 7 = = = = = = = = = = * @ & * ",
"@ @ = = = = = = u u 7 1 7 q q 7 O O . $ = = $ $ = = i u = K c.c.; = = = = = = h.F.F.h.= @ @ O , | O.u 2 = = = = = = = = * @ & & ",
"@ & * * = = = = u 7 2 , 1 7 q 7 . . . $ = = O $ = = M u h K x.x.K = = = = = = K F.F.K = @ @ O , { { 7 1 = = = = = = = = * & & * ",
"& * & @ = = = = $ . 1 1 2 1 . O . . @ @ $ $ . . 1 1 = d M M K K M u M M i u 8 2 7 7 u u @ @ O O , 1 1 1 = = = = = * * & & * * * ",
"& & & @ * = = = . . 2 7 2 , . . . . @ @ . . . . , 1 = = u i = = u q i 7 7 7 2 1 . . 2 2 * @ O O . . 1 1 = = = = * @ @ & * * & * ",
"& = * * = = $ 1 2 2 / ` 2 1 * * @ * $ . . . 2 7 7 2 1 $ * = = = = = = = = = = = * @ * * $ O O O . , / ` i y = = @ @ @ @ @ @ @ = ",
"& & * = = = $ , 7 7 / ` 2 1 * * & * . . . O 7 7 7 2 , 1 * = = = = = = = = = = = * * & * O O , . . , ` O./ u = = * & & @ @ @ @ * ",
"@ & = = & @ 2 1 1 1 / ` 7 1 * & * * $ .   . 7 7 7 7 7 7 2 2 7 7 1 O O O O 1 2 u 7 2 * & @ @ O O 1 7 ) O.O. .= & = * @ * & @ @ @ ",
"& & & & @ @ 1 1 1 1 M / 7 2 * * & * . . . . 2 7 7 7 7 7 < 7 1 < O O . . O O 1 1 2 8 = * @ @ O O 1 1 ( ` { ] * * = = * * * @ @ @ ",
"@ @ @ * & * O O 7 7 1 7 2 2 * & @ @ . . . . . . 2 7 2 2 < 1 , , 2 1 < 2 7 7 , 1 * = d q.@ @ $ O O O 2 7 q q u u = * * * & @ @ @ ",
"@ @ @ * * * . . 1 1 2 7 1 1 * * @ @ $ . . . . . 2 7 2 2 1 1 , , 2 2 7 7 7 7 O 1 * = = = @ @ $ $ . O 2 7 7 7 i u = * * * @ & @ @ ",
"@ @ @ @ @ @ . . 1 1 2 2 2 7 1 2 @ @ @ @ . . . . . O O O O , 7 2 2 q ] X.i 7 < 2 @ @ = = q.q.* @ . . . . 2 7 { { 8 2 * @ @ @ @ @ ",
"@ @ @ * @ @ . . 1 1 7 7 1 2 7 2 $ @ @ @ O .     . . O , . , 2 7 q e { O.M q 7 2 @ @ = = q.q.& @ $ O O . 2 7 ) ` 2 2 @ @ @ & * * ",
"@ @ * * = = $ . 1 1 { X.7 1 7 q 7 y d d 1 .       . 1 1 < 2 2 7 X.O.-.-.O.{ q 7 1 1 s.= = = = q.= = 2 2 1 < 2 1 1 7 = = * = * * ",
"@ @ * @ = = O . 1 1 { #.2 1 7 q q N l.H 1 , . . . . 1 2 7 7 2 2 ] O.O.O.O.{ e i , 1 H d = = q.1.= = u M 7 2 1 1 7 8 = = * * & * ",
"& @ * * = = $ . < < 7 q 2 2 = d ^ ^ H = u 7 7 1 O . . , 2 2 < < q 7 q e q 7 , , 7 7 M y = = = = = = ^ ^ H = O , 2 2 = = * @ & * ",
"@ @ = = = = 1 1 2 1 2 2 2 2 = = E n = = u 7 q 7 , O O 1 7 2 1 < 7 1 2 1 2 2 O O 1 1 e u h = = = = = E ^ H = $ 1 2 2 = = * @ & & ",
"@ @ & = = = 7 7 , , 2 2 7 u = = o + = = i i O.{ 7 2 = = O . O . . . O O = = . . . O ( { u N d = = = % ; = = = = + % = = @ @ @ & ",
"& & & = = = 2 2 O O 2 7 q u = @ o o = = 2 7 O.{ e u = = $ $ O . $ O O $ = = . . . O ) { e i d = = = % % = = = = o # = = @ @ @ & ",
"@ @ = = = = o + = = . O b z = = @ @ $ 1 7 7 7 7 q u = = = = @ @ @ * = = 1 $ . . . . 2 q 7 M = = = q.= = = = % % = = = = & @ * & ",
"@ @ = = = = o o = = O $ P U = = @ @ . . 2 7 q q u M = = = = @ @ * = = = O O . . . . , 7 7 u = = = q.= = = = o # = = = * @ @ @ @ ",
"@ @ @ = q.s.= = o o @ = = = o o = = . . , < q u = = q.s.= q.q.= q.q.= * . . . . . . . $ * = = = = = q.1.= = = = = * * & @ @ @ @ ",
"@ @ @ = = = = = o o @ = = = X o = = O . < 2 q y = = q.q.= 1.= q.= = = * O . . .     . $ * = = = = = = = = & = = = & @ & @ @ @ @ ",
"@ @ @ & & & = = = @ & * = = & * $ . . . O O * = = = = = = = = = & * $ $ . . . .   . @ @ = = = = = * = = = = = = * @ @ @ @ @ @ @ ",
"@ @ @ @ @ & = = = = = = = = = * O . . . O O = = * * * = & = = = @ @ $ . .   . . . O @ @ = = = = = = = = @ & * @ @ @ & @ @ @ @ @ ",
"@ @ @ @ @ & * = 1.= = = @ @ $ O 2 2 2 2 2 2 1 1 @ @ = = = = = 1.@ @ $ . . O < 1 2 < 2 7 @ @ @ @ = = = = & @ * * @ @ @ @ @ @ @ @ ",
"@ @ @ @ & & @ = = = = = @ @ O O 2 7 N q 2 2 2 1 @ @ = = = = = = @ @ $ . . . 1 2 < < q u @ @ @ @ = = = = @ @ @ @ @ @ @ @ @ @ @ @ ",
"@ @ & @ * & @ & & @ * = = = $ O X o n E H H U U = = = = * @ * = = = $ . . . . O X o n U @ @ U U = = & @ @ @ @ @ @ @ @ @ @ @ @ @ ",
"@ @ = & & @ @ @ & @ @ = s.d $ O X o z P s.s.U U = = = = & @ @ = = = $ $ $ . $ $ X # D P @ @ P P = = * @ @ @ @ @ @ @ @ @ @ @ @ @ ",
"@ @ = = & & @ & * & * = = = = = @ @ = = = = = = = = = * & @ & = = = = = = = = = = = = = @ @ = = = = * * & @ @ & @ & @ & = @ @ @ ",
"@ @ = = @ & @ * * & * = = = = = @ @ & = = = = = = = * * & @ * = = = = = = = = = = = = = @ @ = = = = * & & @ @ @ @ @ & = = & @ @ ",
"@ @ & & @ & = = @ @ @ @ = = = * @ & * = = * * * @ @ @ @ @ @ * * = * * & & & * * = = = = & & & & * & * @ @ @ @ @ @ * = = = & @ @ ",
"@ @ @ @ & & = = & @ @ @ & * = @ & * * & & @ @ @ @ @ @ @ @ @ & & & & & & @ & & * * & = & & @ & & & & @ @ @ @ @ @ = = = = = * @ @ ",
"@ @ @ @ @ @ & & * & * = = * = @ @ @ @ @ & @ @ @ @ & & @ @ @ & = & = = * & * * * & @ @ @ @ @ & @ & & @ & @ @ & = = * & & @ @ @ @ ",
"@ @ @ @ @ @ @ @ @ & & & & & @ @ @ @ @ @ @ @ @ & & & & & @ @ & & & & & & & = = & @ @ @ @ @ @ @ @ @ @ & & & = * & & & & & @ @ @ @ "
};
