/* XPM */
static char *xpm_______[] = {
/* columns rows colors chars-per-pixel */
"64 64 77 1 ",
"  c #313132",
". c #313133",
"X c #313233",
"o c #323233",
"O c #323234",
"+ c #323334",
"@ c #333334",
"# c #333335",
"$ c #333435",
"% c #343435",
"& c #343436",
"* c #343536",
"= c #353536",
"- c #343537",
"; c #353537",
": c #353637",
"> c #363637",
", c #353638",
"< c #363638",
"1 c #363738",
"2 c #373738",
"3 c #363739",
"4 c #373739",
"5 c #373839",
"6 c #37383A",
"7 c #383839",
"8 c #38383A",
"9 c #38393A",
"0 c #39393A",
"q c #38393B",
"w c #39393B",
"e c #393A3A",
"r c #393A3B",
"t c #3A3A3B",
"y c #3A3B3B",
"u c #3A3A3C",
"i c #3A3B3C",
"p c #3B3B3C",
"a c #3B3B3D",
"s c #3B3C3C",
"d c #3B3C3D",
"f c #3C3C3C",
"g c #3C3C3D",
"h c #3D3C3D",
"j c #3C3D3D",
"k c #3D3D3D",
"l c #3C3C3E",
"z c #3C3D3E",
"x c #3D3D3E",
"c c #3D3D3F",
"v c #3E3D3E",
"b c #3D3E3E",
"n c #3D3E3F",
"m c #3E3E3E",
"M c #3E3E3F",
"N c #3F3F3F",
"B c #403F3F",
"V c #3F3F40",
"C c #403F40",
"Z c #404040",
"A c #414040",
"S c #404041",
"D c #414041",
"F c #414141",
"G c #424141",
"H c #424142",
"J c #424242",
"K c #434242",
"L c #434342",
"P c #434343",
"I c #444343",
"U c #444443",
"Y c #444444",
"T c #454444",
"R c #454544",
"E c #454545",
"W c #464545",
/* pixels */
"::::ifdfYYYYffiiKK1:51:1KKKf17KKidfffdKKi7ii5777iiffKKKV77ii511:",
"::::iiifYYYYfiddIY111511KKCf17KKfiiffdKK7i771i77ifffKKKK77ii111:",
"1:ifKKfffffffdffff11ifKCfffiifffKKfiiiffiiCV:1ffKfffffddidffff1:",
":1ifYIffffffffffii:1ifKKdidifffiKKfdidfdiiIK1:fKKKffdffdiiiiff1:",
"1:idffffffffffKKdi::diffiidifffiffdf77fiiffd11ddffff7iiffi77fd11",
"1:iiifiifdffffKKfi::dffiififffffffff77iididi11idffffiiiiff77fi11",
"11di11ififffffffi7::57iffdff77dfiiffdiddii77$:ddidfffdff517i111:",
"11ii71ifiddfdffdi7::57iidffi57fdddidfiiiii15##dffdfffiii11if551:",
"1:iiiiffff77ffff71$#15ii57idifdidfKKfi777111##51ifdd71:1ffiii71:",
"11fifffffi77fffi11$$11ii15ifididffCKfd715711##11iidi11:1ffdffi::",
"11777777iidiff71:1::1115517717i777777755551:##$#1771$$7ifi7777:$",
"117777117ififf5:::::1111111515771115575515:#####155:##7fii5175::",
"::1:::#:$$::##$$::::::######::####::::####$$::##$:$###:#:#::::::",
"::::::##$#####:::$::::##$###::###:::::XXX#::::::::##X#:###::::::",
"1177117771#:777iKKKKi7iii751ff$#11d777777i7iKKKKfdi71117fKff771:",
"11ii1777i7::77idKKKKiiiiid77fi#$11fi77fi77ifKKKKffii7577KKKKi7::",
"11idKKiifi::7dffifffffKfdffffi$:iffiiif7::ffffffffffffffffffid1:",
"117fKKfiff11ifffiiifffKKffffff##dff7iifi51ffffffdffffffffdffdi:1",
"1177iifi577757ddifdiff7idifi75$:ifiifd77ii77ffff77ffdfdi77if7111",
"1117ffff11ii15iifffiff77fffi75:$7fidf777fi11ffff77dfdffd77ff511:",
"1:57771115iiiiii77ifffidffffd7$#1577fiifffif77ffifKKdfffdffi15:1",
"::17771:77ffiiff77idffiifiiffi#$1577iffdffff15diffKKffiffifi71:1",
":#15::iifi7715ffii7717ffid7775X#771751fidi711777ffffff77dd7751$:",
"##11#:7ffi1111idfi1111fifi5111X#115711iiii1:15117idfff77i71111##",
"##X#::1771517157557555777771:#X###11:$1155571111555515155511$$##",
"###$111117757555155515775775$##X#X11#::117771151111511155751::##",
"###X#$##$:::####$:###$::::::1:XXXXX##$#::::1$#::::::####::##::##",
"###X#$#####$######X###::$:::::##XXXX###::#::##:::::#####:###$:##",
"##fKKKi7iii7777i11#:77iiiiKCKK777517ii77iiKf$:717777ffi777ii77:#",
"##KIKKfifiid77fd11#$77fiifKKKId77i7ifd7iffIK:#71777iKKffiiifii:$",
"::fffffffffKffiii7##7ifdiffffffd77iffiifffff::ffifffffffiiKKfi:#",
"::idifdfffKKfffffi#$ifffdfdidiii77ffffiiffd7$#ffffffffiiffKKfi:#",
"1177fiff57ffffff77$#15di57ffdi77iiii57fdff75##57ffiddf75ffff77##",
"1117ffi751iffffi77##11dd57dff777ifii77fffi51##:1dfdfii75ifii77##",
"15diff11iiffff7515##iiifffii77diffdfiidi1111##::fff7577fididii$#",
"11i7i711iffffd7511#X7dffdiff75fififffif71115$:11ffii57ifdiiffi$#",
":177::fd15ff775551X#1577dfiiffiffi7757111155X#fd55iiid11ii7775##",
"1151::fi15ii575711##15517i77fffffi1115111111XXii11iii7:1ii7155##",
":###111775577715##X##:111177i775751151::11::##:151715115757551##",
"##X#511555511111#XX###1111775511511111#$11:###::71111115115551#X",
"$###::#####$::::$###XX#:##::###::#####$##:#X#:::::#$###X##::::$#",
"$$$:##XX####::::##X#XX###$::####$#XX##$:#####:::::$###XX##::#:$:",
"::117iKKi777iii777fKff777i7777$:557777i7fKKf::iiiii77711ffi771::",
"::77dfYYffi7iffffiKKKKdiiffffd:#11ifddddKKIK51ffffffd777KKff77##",
"1:iffffffffd15ffdffffffi77iff7:#7idfi7ifff75ifff17ifKfdiffiddi::",
"::fffiidffff117idddiiiff57iif7##iidf77fidd11ffff75idKKdiifiii7$$",
"::17fdffffdffi57ddffdfffffid75$#idiiiffi11ffffffdfiiiidf77ii71:#",
"1:17fffffffffi15ifffffdfffff51$#iffdfffi1:ifffffffiifiii77di51##",
"::7ifi77ddffiiii11dffd77iiffii##17dffi777711fiffiiiiidfiiiid51##",
"::77fi77ifff77fd::7iif11ifidii##15iifi51ii117fdffidiiffdfii755:$",
"::7777iiif77iiffi711ffdii77555##5517iii7i77i77iifi7115ifi77511##",
"::11177fii15iifffi::dfffi55111##1717iiffii7777iii75111iiii5111#X",
"::::7771751157775111::777771###X::11715771::111151111:571551$:##",
":###5751111111711111##777511##X#::15111111#:1111151111111:11::##",
"##:#::##########$::$:##$###XXXX#XXX###::###X####:$X###::##:#####",
":###:$#######X###::#######XXXXX#XXXX##::#XXX######X###$:##::$###",
":#:177iiiiKKffd7::7ifK757iiiifKKff7i71:7i71::#117iffKKKKiiiii7##",
"##157iffffKKKKfi$:ifKK77ffffffIIfffff557ff51$#57iidfKIYYfiddii$#",
"##iiif77ffffffii##17ifdi77fffiffffffffffdifi::7iddfiffi77iff71##",
"##7ffi77dffiiiii#$15iiif77iiiididifiiifffffi:$iidif7fi77iifd71#$",
"##1557iiff55ii11:::111iiii5757idff7757fi7775::711751iiffiffd75#$",
"#:1:117ifi517711:$:1:17if71511iifi7715ii1175::1111157dffffii77:#",
"$$:#::11171111::###$:111151:$#1571751151$:#$#$::111557777751::##",
"$###:::::11111::#XX#::::111:##:11:11157:####X###::1115511151$$##"
};
