/* XPM */
static char *xpm____[] = {
/* columns rows colors chars-per-pixel */
"64 64 162 2 ",
"   c #0D0D0E",
".  c #0E0F10",
"X  c #0F1011",
"o  c #141414",
"O  c #181717",
"+  c #121917",
"@  c #181817",
"#  c #171718",
"$  c #181718",
"%  c #121D19",
"&  c #131D19",
"*  c #131C19",
"=  c #121D1A",
"-  c #131E1A",
";  c #151C19",
":  c #141C1A",
">  c #141D1A",
",  c #161C1A",
"<  c #171C1A",
"1  c #161D1A",
"2  c #171D1A",
"3  c #141E1A",
"4  c #151E1A",
"5  c #141F1B",
"6  c #151F1B",
"7  c #161E1A",
"8  c #161E1B",
"9  c #171E1B",
"0  c #171F1B",
"q  c #141B19",
"w  c #181818",
"e  c #191818",
"r  c #181918",
"t  c #191918",
"y  c #191819",
"u  c #191919",
"i  c #1A1918",
"p  c #1A1919",
"a  c #1B1919",
"s  c #181A19",
"d  c #191A19",
"f  c #181B19",
"g  c #191B19",
"h  c #1A1A19",
"j  c #1B1A19",
"k  c #181B1A",
"l  c #191B1A",
"z  c #1A1A1A",
"x  c #1B1A1A",
"c  c #1A1B1A",
"v  c #1B1B1A",
"b  c #1C1A19",
"n  c #1C1B19",
"m  c #1C1A1A",
"M  c #1C1B1A",
"N  c #1D1B1A",
"B  c #1C1B1B",
"V  c #1D1B1B",
"C  c #181C1A",
"Z  c #191C1A",
"A  c #181D1A",
"S  c #191D1A",
"D  c #181D1B",
"F  c #191D1B",
"G  c #1A1C1A",
"H  c #1B1C1A",
"J  c #1A1C1B",
"K  c #1B1C1B",
"L  c #1A1D1B",
"P  c #1B1D1B",
"I  c #181E1B",
"U  c #181F1B",
"Y  c #191F1B",
"T  c #1A1E1B",
"R  c #1B1E1B",
"E  c #1D1C1A",
"W  c #1C1C1B",
"Q  c #1D1C1B",
"!  c #1D1D1B",
"~  c #1E1C1B",
"^  c #1E1D1B",
"/  c #1F1D1B",
"(  c #181F1C",
")  c #1B1F1C",
"_  c #1D1C1C",
"`  c #1D1D1C",
"'  c #1E1D1C",
"]  c #1F1D1C",
"[  c #1C1E1C",
"{  c #1C1F1C",
"}  c #1F1E1C",
"|  c #1F1E1D",
" . c #1F1F1D",
".. c #1B1B1A",
"X. c #201E1C",
"o. c #201E1D",
"O. c #211E1D",
"+. c #201F1D",
"@. c #211F1D",
"#. c #221F1D",
"$. c #211F1E",
"%. c #221F1E",
"&. c #211F1D",
"*. c #15201B",
"=. c #15201C",
"-. c #14211C",
";. c #15211C",
":. c #17201C",
">. c #16211C",
",. c #17211C",
"<. c #16221C",
"1. c #17221C",
"2. c #16221D",
"3. c #17221D",
"4. c #16231D",
"5. c #16211C",
"6. c #18201C",
"7. c #19201C",
"8. c #18211C",
"9. c #18221D",
"0. c #1D201C",
"q. c #1D201D",
"w. c #1E211D",
"e. c #1B211D",
"r. c #22201D",
"t. c #21201E",
"y. c #20211E",
"u. c #22201E",
"i. c #23201E",
"p. c #22211E",
"a. c #23211E",
"s. c #22201F",
"d. c #22211F",
"f. c #23211F",
"g. c #24211F",
"h. c #24221F",
"j. c #22201E",
"k. c #232320",
"l. c #242220",
"z. c #252220",
"x. c #252320",
"c. c #262320",
"v. c #252521",
"b. c #262421",
"n. c #272421",
"m. c #272521",
"M. c #272522",
"N. c #262320",
"B. c #282521",
"V. c #282522",
"C. c #292522",
"Z. c #292622",
"A. c #2A2622",
"S. c #2A2623",
"D. c #2A2723",
"F. c #2B2723",
"G. c #2A2623",
"H. c #2B2824",
"J. c #2C2824",
"K. c #2D2925",
"L. c #2E2A25",
"P. c #2C2824",
/* pixels */
"        .     . . .   . . .   . .       .       . .               . . . . .       . . .   .         . .                 . .     ",
"    X X o o X o o o o o X . . X .   . X o o X . o o .           X o o o o o . o o X . o .     . . X o o X X . o . . . X . X     ",
". X ^ X.b.C.X.X.c.b.X.} v v X.h.o   0 *.k.C.u.} } X.v o $ v v v X.C.u.} X.} h.C.h.} } X.O   # v ^ X.X.X.X.} ^ } v # v B } X.o   ",
". o X.X.C.F.u.X.b.C.u.X.B v u.b.o   0 3.b.F.u.} X.u.v # v B B v u.C.h.} X.X.c.C.c.} X.u.$   # B } u.u.u.X.X.X.X.^ # v } X.u.o   ",
". o } X.X.u.X.X.} } ^ ^ X.X.} } o   v v I 8.I v } X.} } v # v v v ^ B v v v } X.} v v # o   # ^ B B ^ X.} B v # v } } ^ ^ ^ o   ",
". o } X.X.X.X.X.^ v ^ ^ X.u.} } o   v B I 3.I v } X.} X.v # v B v v v v v v ^ X.^ v v # o   # B v B ^ X.} v v # v X.} ^ v B o   ",
"    v v X.X.^ v B B X.X.X.X.B v o   # # v I v v v # v ^ v v v v v # v v v v v v v # v B #   o # v v v B B v v v ^ X.B # # # X   ",
"    # v X.X.B v v B X.u.X.X.B v o   # # v v v v v # v v v v v v v # v v v v v v v # # ^ #   o # v v v v v v v v ^ X.^ # # # X   ",
"  . v v v B v v v v B B ^ ^ B B o   # v # # v v v v v v v # v v v v v v v v v # v v v v #   # v v # v v v # v v v B v v # # o . ",
"  . v v v v v v v v v v B B v v o   # v # # v v v v v v # # v v v v v v v B v # v v v v #   # B v # # v v # # v v v v v # # X . ",
". . # # v v # # v v I ( I 0 v v o   # # q 0 v v I 0 0 q q v v v v # v v v # q 0 q v v # o   # v v v v # + % 0 0 I v v # # # o   ",
". . # # v v # # v v 8.3.3.3.I v o   # # 0 *.v B I 3.0 % q v v v O # v B v # 0 3.I v v # o   # B v v v # q % 0 3.0 v v # # # o   ",
"    o o o o o o o o o o o o o o . . o o o o o o o o o o o o o o o o o o o o o o o o o o o . o o o o o o o o X o o o o o o o     ",
"                                                                                                                              . ",
"    v v } } B v B B v v B B B B X.u.^ v B B v # v B v B v v o   # ^ B v } u.} v B B B v ^ u.X.B v v B X.} v B B B v B X.B B o   ",
"  X X.u.b.C.u.X.u.u.u.u.u.u.u.u.C.H.u.X.u.u.^ v } u.u.u.} B #   v h.u.u.b.L.b.X.u.X.u.X.c.L.b.u.X.v u.H.C.X.u.u.u.u.c.H.h.u.o   ",
". . v v u.u.X.X.^ B ^ ^ X.X.X.X.u.u.X.X.B v ^ } X.u.} ^ B B o   # v v ^ } X.} ^ } X.X.X.u.u.} ^ } X.X.u.u.X.} v ^ X.u.u.} B o   ",
". . # v X.X.X.X.v v B ^ X.u.X.X.X.X.u.u.v # } u.X.X.^ v B B o   o v v v v v v v } u.u.u.X.X.} v } u.u.u.X.u.} # v u.X.u.B v o   ",
"  . v v B B ^ B v v v v v B } X.^ ^ ^ ^ } } } X.v v v B v B o   # v B } } X.^ v v v B ^ B B ^ } X.X.X.u.} v v } ^ ^ v v v v o   ",
". . v v v v v v v v # # v v } X.B v v v X.u.X.u.v # v v v ^ o   # B ^ X.X.X.^ v v # v v v v ^ u.u.X.X.u.^ # v X.} v v # v v o   ",
"  . v v } } v v v v v v v v ^ ^ B v ^ } X.X.} ^ v v ^ } B B o   # B v B } X.} } ^ v v B v v B ^ } u.} v v ^ ^ B B v v v v v o   ",
"  . v v X.X.v v v v B B v v v v B v } X.X.X.B v B B } u.^ ^ o   # ^ v v ^ X.X.u.} B B B v v v v } X.^ # v X.^ v v # v B v v o   ",
". . # # v B v v v # v v 0 0 v v v # v B I I 0 q I } ^ B v # o   o # # v v B I 0 0 0 v v v # v v I I I v v 0 q # # v v v # # o . ",
". . # # v v v v # # v v *.3.I B # # v v 0 *.% % } u.} v # # o   o # v v v v q + % 3.I v v # v B I 3.0 B v % % # # v v B # # o . ",
"    o o o o o o o o o o o o o o o o o o o o o o o # # o o o X   o o o o o o o o o o o o o o o o o o o o o o o o o o o o o o . . ",
"                                                                                                                                ",
"  . v v ^ ^ v v ^ ^ v v v v v v o   o + v v v v v v ^ X.B v v v v v B } B v v v ^ X.v # o   o $ v X.^ v v v v v v v v + o o X   ",
"  X X.u.C.L.u.u.C.C.h.u.u.u.u.u.o   % *.w.u.u.u.u.u.C.L.b.u.u.u.u.X.b.H.c.X.u.u.b.L.h.B #   # } h.L.C.X.u.u.u.u.u.X.w.3.% % X   ",
". o } X.u.h.X.X.} ^ X.X.X.X.^ ^ o   + 0 I ^ ^ B } X.u.u.u.X.} ^ } } u.h.X.^ } X.u.h.X.} #   O X.u.c.u.X.X.X.} v ^ X.} } 0 % X   ",
". o X.u.X.X.X.X.v # } X.X.X.B v o   + % v B v v } u.X.X.X.u.^ v ^ X.X.X.^ v } u.X.X.X.u.$   O X.X.X.X.X.X.u.^ # v X.X.X.0 % X   ",
". X B ^ X.X.X.X.^ ^ v v ^ ^ B v o   # q I I I B ^ ^ } X.^ v ^ ^ } X.} } v q v } } } ^ } #   # } } X.X.X.} ^ ^ v v B } X.I v o   ",
". . v v X.X.X.u.u.u.v # v B v v o   O B ( 3.I v v v } X.v # ^ u.X.u.^ v q % q B v v v B #   # v ^ X.X.X.} v v B v v B X.^ B o   ",
"  . v v ( ( ^ ^ ^ } v v v B v v o   $ v I I ^ ^ v v ^ ^ ^ ^ } X.} B v v v q v v v v v q o   # v v ^ ^ ^ B v v v B ^ ^ X.^ v o   ",
"  . v v 3.3.v v v v v B B B B v o   O v v v } X.B v v v } u.X.X.B v v v v v v v v v q % X   # B v v v v v v v v B X.X.X.B v o   ",
". . # v I I I I v v I I I I v v o   # q v v B ^ B v v v v v B ^ I q q q v v v v v # # q o   o v v v v v v v v I I ( I I v v o   ",
". . # # v B 3.3.v B 0 0 *.3.q # o   + % v B v v v B B ^ v # v v 0 % % % 0 B v v v # # B #   o v v B v v v # q *.*.*.0 0 I B o   ",
"    o o # # + + q q q % + + o o o . o o q q q q # # # # # o o # o o o o o # # # # o o # o   o # # # # # o o o o o o o o # # X   ",
"                X + X X                 + % + + X                                                                               ",
"    # O v v O O I I } w.v O # O v $ O # v I I I v O + + o o o   # O O O # # v B $ O # # # v O # O # O O # # # # $ v v O # o X   ",
"  X X.u.C.C.u.u.u.u.C.H.h.u.u.u.b.b.u.u.u.X.h.c.u.u.w.9.*.% o   v h.u.u.u.u.b.L.C.u.X.v X.C.c.X.u.u.u.u.u.u.u.u.c.C.b.u.B v o   ",
". X B } u.c.X.X.} } c.c.u.X.X.X.X.X.} ^ ^ ^ } } X.X.} w.0 % o   # } ^ ^ } X.u.c.u.^ ^ v } h.u.X.X.X.} ^ ^ ^ ^ v } h.X.X.I q o   ",
". . v v } X.X.X.v v X.X.X.X.u.u.B v v v v v v v } X.X.X.I % o   # v v v } u.X.u.^ v v v ^ X.X.X.X.u.} v v v v # v X.X.X.0 % X   ",
"  . v v ^ ^ B B v v } } X.X.} } v v v v v v v v } X.} ^ q % o   # v v v B } } } ^ v v v ^ } } X.} ^ v v v v v v v ^ } } q % X   ",
". . v B v v # # v v v v X.X.B v v v # # # # v v } u.^ v q % o   # v v # v v v v v B v v v v ^ X.B v # # v v v v v v v B q % X   ",
". . q v v v v v v v v v } w.^ B v v v O v v v v ^ } ^ v q q o   # v v # v B v v v I I v v v ^ } v v v # v v v v v v v B q q o   ",
". . % % v v v v v v v v *.3.v v v v v v v v # # v v v v v B o   # v v v v v v v I 3.I B v B B v B v B v v v v v v v v v v v o . ",
". . + q I I v v v v v v I 0 v v v v q q q v q # q v v v v v o   o v v v v v v v q 0 0 v v v v q v v v v v q q q q q v v v v o   ",
". X O v 3.3.v v # # v v B B v v 0 3.% % 0 3.% + % + q B q # o   o # # v B B q % % + % 3.0 % % % q B v B q + + + + + q B # # X   ",
"  . # # q + # # # o # # # # # # + + + o + q o o o o # # # o o   o o # # # # # o o o + + + o o o o # # # # o o o o o o # o o .   ",
"                                                                                                                                ",
"    o # # # # # # # # # # # o o X   o o # # # # # # # # # # o o o o # # # o # # # # o o o   o # # # # o # # # # # # # # # # X   ",
". o X.u.u.u.X.X.C.H.u.u.u.X.8.3.o   v ^ u.u.C.L.c.X.u.u.u.u.} B B v u.C.c.X.u.u.u.u.} v #   $ u.u.u.u.u.h.C.c.u.u.u.c.L.u.X.o   ",
"  . B ^ } } } ^ h.h.} } X.X.6.*.o   $ v ^ } u.h.u.X.} } } } ^ v v v X.c.u.X.} } } } B v #   # } ^ } } } X.u.X.^ } } X.h.} } o   ",
". . # # v v v v v v v v } X.I 0 X   O v v v v v } u.B v v v v v v v v v ^ u.^ v v v v v #   # v v v v v v v v v v v v v v v o   ",
". . # # v v v v v v v v } ^ I 0 o   # v v v v B } } ^ v v v v v v v v v v } ^ v v v v v #   # v v v v v v v v v v v v v v v o   ",
". . v v v v # # v B v v v v v v o   # # v v v v v v } X.^ v v # v v q % q v v v v v v # o   o # # # v v v v v v v # v ^ v # X   ",
". . v v v v v + v v v v v v v v o   o # q v v v v v ^ } ^ v v # v v q % q v v v v v v # o   o v # # v v v v v v v v v B v # o . ",
". . v v # # v v 0 % v v v v # # o   + 0 % % # # v B v v v v v v q % % % q # v B v # # v o   # v v v v # # # # # v B B B # # o   ",
". . v v # # v v 0 % v v v v # # X   + % % 0 q # v v v v v v v v q % % % q # v v # # # # o   # v v v # # # # v # v B B v # # o   ",
". . # # v v % % + + % % 0 0 # # X . o + % 0 % % v v # # v B q % + + q B v v v # # # # # o   o # # # # # v v v v v v # # # # o   ",
"    o # O v + o o o + % % % o o X . o o + % % + # v # o # v + + o o # v + # # # # # # o o . o # # # # # # # # # # # # # # # .   ",
"    .   .     . . . .   .     .       . . . . . .     .     . . . . . .   .   .     . . . .               . . .   .       .     ",
"    . . . . . . . . . . . . . .     . . . . . . . .     . . . . . . . . . . . .   .     . . . .     .   . . . . . . . . . .     ",
"                                                                                                                                "
};
