/* XPM */
static char * 왕자_xpm[] = {
"64 64 285 2",
"  	c #353637",
". 	c #3A3B3C",
"+ 	c #3C3C3C",
"@ 	c #3B3C3D",
"# 	c #444444",
"$ 	c #434242",
"% 	c #363738",
"& 	c #373839",
"* 	c #383839",
"= 	c #3F3F40",
"- 	c #444343",
"; 	c #403F40",
"> 	c #6C422B",
", 	c #AB6525",
"' 	c #BF7828",
") 	c #64422D",
"! 	c #754A2B",
"~ 	c #C17625",
"{ 	c #D18529",
"] 	c #5D402C",
"^ 	c #AE6F28",
"/ 	c #7C4A2A",
"( 	c #8C5427",
"_ 	c #CE8127",
": 	c #DB912B",
"< 	c #AD6926",
"[ 	c #B57127",
"} 	c #C97D26",
"| 	c #A36226",
"1 	c #BC7326",
"2 	c #D38426",
"3 	c #E0952B",
"4 	c #D18B2B",
"5 	c #6D492D",
"6 	c #C98028",
"7 	c #83512B",
"8 	c #7D4927",
"9 	c #7A502B",
"0 	c #C87E28",
"a 	c #D98C29",
"b 	c #E39A2D",
"c 	c #DB9730",
"d 	c #5A4133",
"e 	c #B46C26",
"f 	c #333435",
"g 	c #C57A26",
"h 	c #734329",
"i 	c #834C26",
"j 	c #333335",
"k 	c #BC7528",
"l 	c #CD822A",
"m 	c #7A4629",
"n 	c #A15E28",
"o 	c #7A4526",
"p 	c #633C2A",
"q 	c #543A2D",
"r 	c #643B26",
"s 	c #6D4126",
"t 	c #8C512C",
"u 	c #834B2A",
"v 	c #6B3E29",
"w 	c #734226",
"x 	c #6A3D26",
"y 	c #94562C",
"z 	c #9A5A2C",
"A 	c #894E2A",
"B 	c #623326",
"C 	c #5B3326",
"D 	c #5C3B2C",
"E 	c #313233",
"F 	c #945A2C",
"G 	c #B5713D",
"H 	c #CB8549",
"I 	c #C58146",
"J 	c #BA733D",
"K 	c #B26E3B",
"L 	c #A36235",
"M 	c #323333",
"N 	c #272726",
"O 	c #303030",
"P 	c #353636",
"Q 	c #CD8A4D",
"R 	c #DB9857",
"S 	c #DC9956",
"T 	c #D99554",
"U 	c #D59252",
"V 	c #D28C4D",
"W 	c #B57844",
"X 	c #322F2C",
"Y 	c #2F281F",
"Z 	c #3D3225",
"` 	c #302F2E",
" .	c #AB6A39",
"..	c #DD9B58",
"+.	c #C37C43",
"@.	c #342E26",
"#.	c #4F412D",
"$.	c #4B3D2A",
"%.	c #2E2923",
"&.	c #4C352C",
"*.	c #BE7A42",
"=.	c #3B3B3A",
"-.	c #53422D",
";.	c #2E2921",
">.	c #383736",
",.	c #9C5C32",
"'.	c #A96739",
").	c #C4844A",
"!.	c #383533",
"~.	c #463929",
"{.	c #624E33",
"].	c #574731",
"^.	c #332B21",
"/.	c #333230",
"(.	c #925631",
"_.	c #C87F44",
":.	c #AA6536",
"<.	c #3B352F",
"[.	c #6F5839",
"}.	c #383939",
"|.	c #BB7640",
"1.	c #CD8C50",
"2.	c #935832",
"3.	c #3D342A",
"4.	c #735C3B",
"5.	c #5C4A32",
"6.	c #302C26",
"7.	c #D48F50",
"8.	c #824F30",
"9.	c #AD6837",
"0.	c #3C3B3B",
"a.	c #423625",
"b.	c #343230",
"c.	c #3B3936",
"d.	c #665135",
"e.	c #363535",
"f.	c #6E4630",
"g.	c #CC9054",
"h.	c #704731",
"i.	c #39332E",
"j.	c #6D5637",
"k.	c #3D3328",
"l.	c #634330",
"m.	c #3C332A",
"n.	c #38332D",
"o.	c #8C5631",
"p.	c #363737",
"q.	c #7D623E",
"r.	c #373532",
"s.	c #845433",
"t.	c #373533",
"u.	c #333334",
"v.	c #754A31",
"w.	c #3C362F",
"x.	c #826740",
"y.	c #322C26",
"z.	c #463B2E",
"A.	c #7A5F3B",
"B.	c #896B43",
"C.	c #3B3632",
"D.	c #794D32",
"E.	c #52422E",
"F.	c #967547",
"G.	c #413F3E",
"H.	c #543D32",
"I.	c #53342B",
"J.	c #5B342B",
"K.	c #A36639",
"L.	c #3C3A38",
"M.	c #59482F",
"N.	c #977548",
"O.	c #5C2D29",
"P.	c #632C23",
"Q.	c #7B3225",
"R.	c #8C3524",
"S.	c #833224",
"T.	c #64332A",
"U.	c #3F3933",
"V.	c #3A352E",
"W.	c #662F28",
"X.	c #792F24",
"Y.	c #943624",
"Z.	c #9A3925",
"`.	c #7A3B27",
" +	c #9E5731",
".+	c #8C4F30",
"++	c #733929",
"@+	c #3F372C",
"#+	c #3A3836",
"$+	c #59443E",
"%+	c #443C41",
"&+	c #533F3A",
"*+	c #CA8246",
"=+	c #51412E",
"-+	c #3B3B3B",
";+	c #743226",
">+	c #44363A",
",+	c #3B3E4B",
"'+	c #59453D",
")+	c #963825",
"!+	c #9D5C25",
"~+	c #B86F25",
"{+	c #A96625",
"]+	c #584731",
"^+	c #342E28",
"/+	c #3D3740",
"(+	c #3B3B44",
"_+	c #433435",
":+	c #732F24",
"<+	c #4B3433",
"[+	c #43454D",
"}+	c #523332",
"|+	c #C07828",
"1+	c #AF6D28",
"2+	c #805428",
"3+	c #46331F",
"4+	c #6B3429",
"5+	c #374354",
"6+	c #3A4A5D",
"7+	c #394659",
"8+	c #4A3438",
"9+	c #4C3D3A",
"0+	c #C77B25",
"a+	c #A9671F",
"b+	c #BA7526",
"c+	c #552F2B",
"d+	c #3B4D63",
"e+	c #975B26",
"f+	c #813F24",
"g+	c #43393B",
"h+	c #454044",
"i+	c #3D5169",
"j+	c #353D4A",
"k+	c #965525",
"l+	c #6B2E25",
"m+	c #3C373A",
"n+	c #5F3B31",
"o+	c #3A4454",
"p+	c #3C5067",
"q+	c #C97C26",
"r+	c #4D3934",
"s+	c #3A3A3C",
"t+	c #3B3434",
"u+	c #4C3A2D",
"v+	c #353B46",
"w+	c #3B414D",
"x+	c #333740",
"y+	c #35404F",
"z+	c #5A4A42",
"A+	c #4C494D",
"B+	c #454D57",
"C+	c #7F5232",
"D+	c #444E5D",
"E+	c #A15F32",
"F+	c #4A4244",
"G+	c #414652",
"H+	c #45332D",
"I+	c #9B622E",
"J+	c #415165",
"K+	c #37363B",
"L+	c #552F26",
"M+	c #675246",
"N+	c #684833",
"O+	c #575253",
"P+	c #492C29",
"Q+	c #A56229",
"R+	c #5D2D24",
"S+	c #4E3027",
"T+	c #6C3125",
"U+	c #993724",
"V+	c #703F26",
"W+	c #45484F",
"X+	c #433C32",
"Y+	c #3B3C35",
"Z+	c #513127",
"`+	c #353A35",
" @	c #484034",
".@	c #54412F",
"+@	c #36423D",
"@@	c #384740",
"#@	c #3A4942",
"$@	c #374640",
"%@	c #3A433D",
"&@	c #3F352F",
"*@	c #44392F",
"        . + @ + # # # # + + . . $ $ %   & %   % $ $ $ + % * $ $ . @ + + + @ $ $ . * . . & * * * . . + + $ $ $ = * * . . & % %   ",
"        . . . + # # # # + . @ @ - # % % % & % % $ $ ; + % * $ $ + . . + + @ $ $ * . * * % . * * . + + + $ $ $ $ * * . . % % %   ",
"%   . + $ $ + + + + + + + @ + + + + % % . + $ ; + + + > , ' > + $ $ + . . . + + . . ; =   % + + $ + + + + + @ @ . @ + + + + %   ",
"  % . + # - + + + + + + + + + + . .   % ) ) $ $ @ . @ ! ~ { ! . $ $ + > ] @ + @ . . - $ %   + $ $ $ + + @ + + @ . . . . + + %   ",
"%   . @ + + + + + + + + + + $ $ @ .     ! ^ / + . . ) ( _ : < > + + / [ / * + . . + + @ % % @ @ + + + + * . . + + . * * + @ % % ",
"%   . . . + . . + @ + + + + $ $ + .     / } | . . + ! 1 2 3 4 5 + + ( 6 7 * . . @ . @ . % % . @ + + + + . . . . + + * * + . % % ",
"% % @ . % % . + . + + + + + + + . *     8 1 6 9 + @ 9 0 a b c ! d 5 e _ 7 . @ @ . . * * f   @ @ . @ + + + @ + + & % * . % % %   ",
"% % . . * % . + . @ @ + @ + + @ . *     ! 1 g | ! ! | _ a 3 : | h i _ g / . . . . . % & j j @ + + @ + + + . . . % % . + & & %   ",
"%   . . . . + + + + * * + + + + * % f j h e g } 1 k } { 2 a a l ' ~ } e m ) * * * % % % j j & % . + @ @ * %   % + + . . . * %   ",
"% % + . + + + + + . * * + + + . % % f f h [ } g ~ 1 ~ ~ 1 1 e < | n i o o h p q & * % % j j % % . . @ . % %   % + + @ + + .     ",
"% % * * * * * * . . @ . + + * %   %   q r h 8 8 h s h h i i i 8 i t t t t u u s q & %   j j f j % * * % f f * . + . * * * *   f ",
"% % * * * * % % * . + . + + &       q v h m m m m u u m w x r x 8 u y z y u i u s q   j j j j j % & &   j j * + . . & % * &     ",
"    %       j   f f     j j f f   q v m m m u u u A y y o B C x v v 8 t z t m u 8 q f f     j j f   f j j j   j   j             ",
"            j j f j j j j j       D h m h m A u m y z y A A m h v v v h t y m u 8 D                 j j E j   j j j             ",
"% % * * % % * * * % j   * * * . q v w w u A u m 8 F y t G H I J K L m r 8 i h u u h D . $ $ $ $ + @ M N O P % * + $ + + * * %   ",
"% % . . % * * * . *     * * . @ q v w w h h h m y F u t Q R S T U V W h 8 u v h 8 u p + $ $ $ $ + + X Y Z Z ` * $ $ $ $ . *     ",
"% % . @ $ $ . . + .     * @ + + q v h h h h u u t u A  .U ....S S T +./ u u t v v > q + + + + + + + @.Z #.$.%.+ + + + + . @ %   ",
"% % * + $ $ + . + + % % . + + + &.v m h m m v h 8 A K H T ......S V L t t K *./ v D + + + + + + @ =.Z $.-.$.;.>.+ @ + + @ .   % ",
"% % * * . . + . & * * * & * @ @ &.v h h m m h ,.*.+.K '.+.U T S ..U +.+.).H *./ h q * * + + + + * !.~.{.].$.^./.* * . + * % % % ",
"% % % * + + + + % % . . % & . . &.v h s r h m J V K t u t (.L H ....U _.:.,.t v s D % % + + + + * <.#.[.{.$.^.}.* * + + & % %   ",
"%   & * * * % % % & . . . . . . d p v v p h m |.V H |.K :.y y J T ..1.2.A :.:.s D + . + * * + + . 3.-.4.5.~.6.+ @ + + . % &   % ",
"    % * * * %   * * + + . . + + * > L K u r m J 7.V G 8.> h 9.H ..T |.m v ,.K > + + + + % & @ . 0.~.].4.].a.b.+ + . + . * %   % ",
"  j % &     . . + . * * % & + + . h G J :.s / +.U V +.W D > +.T ..T G r p W :.> @ . * % % * * * c.-.d.4.].Z e.* @ @ * * & % f   ",
"j j % % j   * + + . % % % % . @ + f.J _.J L A +.T T U g.h.8.1.R ..T G m / ).,.> . . %   % & % % i.].j.d.-.k.* * . * % % % % j j ",
"j j E j     % * * % & % * % & * & l.,._.J J J H T ..R T ).Q R ....R I '.).Q 2.% & & & * % % % % m.d.4.{.$.n.% & & & % % f f j j ",
"j j j f % % % % % * * & * & & & % & >  .+.+._.H U ..R R ............U G U U o.% % * * * % % & p.~.4.q.].~.r.% & & * & %     j j ",
"j j j E j f j j f       j j j j f   j f. .J 9.H U R ....R R R T T T V K U U s.        % f j   t.-.q.q.-.a.u.j j     j j     j j ",
"j j j E j f j j j j j f j j j j j j E j ) ! o.+.7.U R ..R T R T V _.*.H T Q v.    j     j j   w.{.x.x.~.y.j j j   j j j f   j j ",
"j j + $ $ $ . * . . . * * * * . % % j   * D h  .V U R ..R Q U U U V V T U  .* * . . $ + f   * z.A.B.q.a.C.+ . * * * . . * *   j ",
"j j $ - $ $ + . + . . @ * * + @ % % j f * * D u +.U T ..R 7.*.J J |._.T H D.* . + + - $   j * E.F.B.4.Z G.$ + + . . . + . .   f ",
"    + + + + + + + + + $ + + . . . H.I.C B J.p y ,.).U R R R U V V 7.U U K.. . + + + + +     L.M.N.q.{.k.+ + + + . . $ $ + .   j ",
"    . @ . + @ + + + $ $ + + + + I.O.P.Q.R.S.T.y L (.G V T R T V V 7.T +.v.+ . . + + @ * f j U.{.N.4.-.V.+ + . . + + $ $ + .   j ",
"% % * * + . + + & * + + + + + C W.S.X.S.Y.Z.R.`. +(.! (.+.U T T T U H .+++p + @ + + d ) j j @+d.N.j.$.#+@ + * & + + + + * * j j ",
"% % % * + + . * & % . + + + I.Q.R.R.Y.Y.R.R.Z.Y.++$+%+&+/ L +.H H *+ +Q.R.Q.J.+ + . ) ( u > =+j.F.{.Z -+. . * & . + . . * * j j ",
"% & @ . + + % % . . + + + I.;+S.W.P.X.Y.Y.Y.Y.Z.R.T.>+,+%+'+o.y 7 u S.Y.)+S.;+J.% % ) !+~+{+]+[.x.-.^+* & * * + . @ . @ . . f j ",
"% % . * . * % % . + + + + T.S.J./+(+_+O.X.R.)+Y.)+R.:+<+,+[+/ u H.}+S.Z.R.Y.R.T.% % % ! < 1 |+1+2+3+b.. & * . + @ . . + + . f j ",
"  % * *     + @ % & + + 4+S.:+>+5+6+7+,+8+W.S.)+Z.Y.)+R.T.9+> 8 d ;+Y.Y.R.)+Q.J.% % & & h 8 !+1 0+a+b+1 !+@ % % . . * * * & j j ",
"% % & %     + . % & . J.S.S.c+,+6+d+d+d+6+%+<+W.Q.R.)+R.Q.p e+1 < f+S.Z.)+;+}+g+h+% % % > s m i i !+~ g !+*   % . . * % & & j j ",
"  j j j % % % * * & & T.S.X._+5+6+d+d+i+d+j+j+(+>+}+;+X.B i g 2 _ k+l+l+C <+,+,+m+%   o.|.G A u h v s ! & % % & * & * & & % j j ",
"j j E j & % % & & & n+;+S.}+o+6+d+d+p+i+6+j+5+6+7+o+%+8+<+i g 2 q+k+r+%+(+s+o+o+t+u+D ,.H _.,.|.K > % % % % % & % % & & & % j E ",
"f j j j     j j j j 4+R.l+%+5+d+d+d+d+d+5+v+7+d+d+d+6+6+o+H.!+~ , ) w+7+o+s+o+w+m+p ! K :.:.9.J J h j f j j j E j j         f j ",
"f f f   j j E E j j Q.R.I.o+d+6+6+d+d+6+v+x+y+6+i+i+i+i+d+o+z+e+7 A+6+d+w+s+o+w+%+/ u G ,.*.*+_.9.> f j j j E E j j     j   f   ",
"    % % * . $ $ . J.Q.:+>+7+d+d+d+6+6+w+t+v+5+7+p+i+i+i+p+d+B+F C+D+d+6+(+s+o+w+g+u 8 E+:.+._.+.y p . * * * % % + + . * * %     ",
"    * * @ + # # + ;+S.I.g+F+F+F+G+6+5+_+H+,+5+5+d+i+i+i+d+d+B+I+C+J+p+6+K+s+o+o+9+u u u J *++.,.> + + + @ * * * $ $ + + * * j j ",
"%   . + + + + + D Q.S.L+D / u u D.&+g+I.I.s+5+5+7+d+i+i+d+6+A+I+M+J+p+o+t+t+,+o+%+! u 8 9._.+.y D * . + $ + @ . + + . @ @ .     ",
"    + + + . . @ 4+Y.S.L+m t y y y m q C C t+w+o+5+6+d+d+6+[+N+F O+d+o+(+P+P+t+o+w+q m n Q+t / ) * & . @ $ $ @ . . + . . . * f f ",
"    % * + @ + J.S.Y.:+L+w A y y t u B B C H+r+r+r+9+&+9+d F , , I+l.D P+R+P.O._+t+&.h e 1 i D + @ + . . . . @ + * * . . * %   j ",
"%   % * + + + C R.Y.:+O.C m y t i r C C &.>+q D s m h h s , i i , w x S+R+T+T+T.H.  . u ( > + + + + . . + . . . * * @ . & % j j ",
"    * . + . D ;+Y.)+l+P.C i y y y o C I.s+o+o+[+F+9+H.H.H.| !+!+!+x r+m+&.P.;+;+J.* % % + . + + . . . . . @ + . . . . @ & % j j ",
"    * * + . T.R.U+S.P.R+V+t y z y A r &.w+6+d+d+d+6+6+6+[+! s s ) h+w+w+m+L+:+S.B . % % * + @ + + . @ . . + + @ + . . * & &   f ",
"    * * * D ;+R.Z.:+R+O.w t y y y o V+H+w+6+d+i+p+p+d+d+W+7 X+X+/ [+5+5+(+H+4+R.T+* * . * * . . + . * % % & . + . * * & % % j j ",
"    % % % C S.U+Y.P.R+R+r o i A A V+x &.l.'+D+J+J+J+J+D+'+u X+X+7 z+[+G+9+I.P.R.S.p * * * * . . . * & % % % . . . . & % % % j E ",
"        * C S.Z.Y.R+P.P.C x w w w V+C H+u+h s.s.s.s.s.s.t w Y+Y+i F o.s.8 S+P.Y.Y.4+    % % % % & % % % %   & * % & & % f   j j ",
"  j j j & J.S.Z.Y.P.P.P.P.O.C C C C Z+t+`+ @.@] ) s s w w I.`+`+q s r D u+H+R+Y.)+4+j   % % % % % & % % % % % % %   % %     j j ",
"j j   j     4+R.R.B 4+r P.P.R+P.P.P.Z+Y++@@@+@+@Y+Y+X+&.C C X+`+`+Y+Y++@+@Y+I.R.Y.4+j E j j j j   f E j j j     j j   j j j j j ",
"  j j j   f j 4+;+j j j j E B P.P.R+&.+@#@#@#@@@+@+@Y+H+R+P.q t++@$@#@#@#@#@H+T+;+E E E j j j j j j E j j j f   j j     f j j j ",
"  j   % * * . . . . $ $ + + @ *   D H+%@%@#@#@@@%@`+t+. . + $ &@Y+%@#@#@#@%@X+* . * %     j % % * . + + $ $ $ $ . . . . . * j j ",
"j j % & * . + + + + $ $ $ $ + . f q D D &.*@X+X+X+*@+ + + + - &.&.q q D D D D * + + & % f j & * . . @ + $ - # # + . @ @ . . f j ",
"j j . . . + * * + + + + + + . . j I.x w s x s s r &.+ + + . + I.x x V+w w V+r + @ . + .     * . @ @ + . + + . * * . + + * % j j ",
"j j * + + . * * @ + + . . . . . j &.C x w w m m D * . . . . @ H.J.r x r r C q + + + + .   f . . @ . + * + . * * . . + @ * % j f ",
"j j % & & * . . + + & & . . % %   I.r x x x D q q . & * & * . @ &.B x w m h r D * * * &     * % % * & % . . + + . + + @ * & j f ",
"j   %   % % * . + . & % * * % % q p m u u m r &.+ * % & % % . . I.r V+8 u u u m D q * &     % % % % % & * @ + + + + . . * *   j ",
"f f   j     % % % * % % % %     q v m u u 8 x q % & %   f j % & &.C x w m u u m r q j f j f     % % % & & * * * * * & %     j j ",
"f j j j           % % % % %     j E E j         % % %   j j   % %   % % % & *   j j j j E j j j     % % % & & % % % & % f f j j "};
